;FLAVOR:Marlin
;TIME:8877
;Filament used: 4.07302m
;Layer height: 0.1
;MINX:66.123
;MINY:97.873
;MINZ:0.12
;MAXX:168.877
;MAXY:137.127
;MAXZ:9.22
;TARGET_MACHINE.NAME:ELEGOO NEPTUNE 3 Pro
;Generated with Cura_SteamEngine 5.5.0
M140 S70
M105
M190 S70
M104 S210
M105
M109 S210
M82 ;absolute extrusion mode
;ELEGOO NEPTUNE 3 Pro
M220 S100 ;Set the feed speed to 100%
M221 S100 ;Set the flow rate to 100%
G90
G28 ;home
;M420 S1 Z10;Uncomment to enable progressive compensation height of 10mm
G92 E0 ;Reset Extruder
G1 Z0.45 F300
G1 X1.5 Y20 F5000.0 ;Move to start position
G1 Y120.0 F600.0 E15 ;Draw the first line
G1 X0.5 F1000.0 ;Move to side a little
G1 Y20 F600 E30 ;Draw the second line
G92 E0 ;Reset Extruder
G92 E0
G92 E0
G1 F2400 E-3
;LAYER_COUNT:92
;LAYER:0
M107
M204 S500
G0 F6000 X68.666 Y98.765 Z0.12
;TYPE:SKIRT
G1 F2400 E0
G1 F900 X69.945 Y98.179 E0.03832
G1 X71.293 Y97.873 E0.07598
G1 X163.655 Y97.873 E2.59192
G1 X164.418 Y97.977 E2.6129
G1 X165.832 Y98.479 E2.65377
G1 X167.111 Y99.402 E2.69674
G1 X167.95 Y100.437 E2.73303
G1 X168.455 Y101.351 E2.76147
G1 X168.877 Y102.862 E2.80421
G1 X168.865 Y132.073 E3.59992
G1 X168.772 Y132.671 E3.6164
G1 X168.271 Y134.082 E3.65719
G1 X167.348 Y135.361 E3.70016
G1 X166.313 Y136.2 E3.73645
G1 X165.399 Y136.705 E3.76489
G1 X163.888 Y137.127 E3.80763
G1 X71.092 Y137.126 E6.3354
G1 X69.539 Y136.69 E6.37934
G1 X68.129 Y135.843 E6.42414
G1 X67.015 Y134.584 E6.46993
G1 X66.429 Y133.305 E6.50826
G1 X66.123 Y131.957 E6.54591
G1 X66.124 Y102.842 E7.339
G1 X66.56 Y101.289 E7.38294
G1 X67.407 Y99.879 E7.42775
G1 X68.666 Y98.765 E7.47354
G0 F6000 X68.968 Y99.227
G1 F900 X70.122 Y98.698 E7.50812
G1 X71.352 Y98.419 E7.54248
G1 X163.655 Y98.419 E10.05682
G1 X164.283 Y98.509 E10.0741
G1 X165.576 Y98.968 E10.11147
G1 X166.734 Y99.804 E10.15038
G1 X167.495 Y100.743 E10.1833
G1 X167.946 Y101.559 E10.2087
G1 X168.331 Y102.937 E10.24767
G1 X168.325 Y131.989 E11.03905
G1 X168.24 Y132.536 E11.05413
G1 X167.782 Y133.826 E11.09142
G1 X166.946 Y134.984 E11.13033
G1 X166.007 Y135.745 E11.16325
G1 X165.191 Y136.196 E11.18865
G1 X163.813 Y136.581 E11.22762
G1 X71.169 Y136.58 E13.75125
G1 X69.755 Y136.183 E13.79125
G1 X68.483 Y135.419 E13.83167
G1 X67.477 Y134.282 E13.87303
G1 X66.948 Y133.128 E13.90761
G1 X66.669 Y131.898 E13.94196
G1 X66.67 Y102.919 E14.73135
G1 X67.067 Y101.505 E14.77136
G1 X67.831 Y100.233 E14.81178
G1 X68.968 Y99.227 E14.85313
G0 F6000 X69.271 Y99.688
G1 F900 X70.297 Y99.218 E14.88388
G1 X71.411 Y98.965 E14.91499
G1 X163.655 Y98.965 E17.42773
G1 X164.151 Y99.042 E17.4414
G1 X165.32 Y99.457 E17.47519
G1 X166.359 Y100.207 E17.51009
G1 X167.038 Y101.046 E17.5395
G1 X167.437 Y101.767 E17.56194
G1 X167.785 Y103.012 E17.59716
G1 X167.785 Y131.905 E18.3842
G1 X167.708 Y132.401 E18.39788
G1 X167.293 Y133.57 E18.43167
G1 X166.543 Y134.609 E18.46657
G1 X165.704 Y135.288 E18.49597
G1 X164.983 Y135.687 E18.51842
G1 X163.738 Y136.035 E18.55363
G1 X71.246 Y136.034 E21.07312
G1 X69.971 Y135.676 E21.1092
G1 X68.837 Y134.995 E21.14523
G1 X67.938 Y133.979 E21.18218
G1 X67.468 Y132.953 E21.21292
G1 X67.215 Y131.839 E21.24404
G1 X67.216 Y102.996 E22.02973
G1 X67.574 Y101.721 E22.0658
G1 X68.255 Y100.587 E22.10183
G1 X69.271 Y99.688 E22.13879
G0 F6000 X69.573 Y100.15
G1 F900 X70.474 Y99.737 E22.16579
G1 X71.47 Y99.511 E22.19361
G1 X163.655 Y99.511 E24.70473
G1 X163.968 Y99.556 E24.71335
G1 X165.063 Y99.945 E24.745
G1 X165.982 Y100.608 E24.77587
G1 X166.58 Y101.347 E24.80176
G1 X166.929 Y101.977 E24.82138
G1 X167.239 Y103.087 E24.85278
G1 X167.239 Y131.905 E25.63778
G1 X167.194 Y132.218 E25.64639
G1 X166.805 Y133.313 E25.67805
G1 X166.142 Y134.232 E25.70892
G1 X165.403 Y134.83 E25.73481
G1 X164.773 Y135.179 E25.75443
G1 X163.663 Y135.489 E25.78582
G1 X71.323 Y135.488 E28.30117
G1 X70.187 Y135.169 E28.33331
G1 X69.191 Y134.571 E28.36496
G1 X68.4 Y133.677 E28.39747
G1 X67.987 Y132.776 E28.42447
G1 X67.761 Y131.78 E28.45229
G1 X67.762 Y103.073 E29.23427
G1 X68.081 Y101.937 E29.26641
G1 X68.679 Y100.941 E29.29806
G1 X69.573 Y100.15 E29.33058
G0 F6000 X69.875 Y100.612
G1 F900 X70.651 Y100.256 E29.35383
G1 X71.529 Y100.057 E29.37836
G1 X163.655 Y100.057 E31.88787
G1 X163.838 Y100.089 E31.89293
G1 X164.806 Y100.433 E31.92092
G1 X165.603 Y101.008 E31.94769
G1 X166.124 Y101.651 E31.97023
G1 X166.421 Y102.187 E31.98692
G1 X166.693 Y103.162 E32.0145
G1 X166.693 Y131.905 E32.79746
G1 X166.661 Y132.088 E32.80252
G1 X166.317 Y133.056 E32.8305
G1 X165.742 Y133.853 E32.85727
G1 X165.099 Y134.374 E32.87982
G1 X164.563 Y134.671 E32.89651
G1 X163.588 Y134.943 E32.92408
G1 X71.4 Y134.942 E35.43529
G1 X70.403 Y134.662 E35.4635
G1 X69.545 Y134.147 E35.49076
G1 X68.862 Y133.375 E35.51883
G1 X68.506 Y132.599 E35.54209
G1 X68.307 Y131.721 E35.56661
G1 X68.308 Y103.15 E36.34489
G1 X68.588 Y102.153 E36.3731
G1 X69.103 Y101.295 E36.40036
G1 X69.875 Y100.612 E36.42844
G0 F6000 X70.178 Y101.073
G1 F900 X70.826 Y100.776 E36.44785
G1 X71.588 Y100.603 E36.46914
G1 X163.655 Y100.603 E38.97705
G1 X164.547 Y100.92 E39.00283
G1 X165.226 Y101.41 E39.02564
G1 X165.668 Y101.955 E39.04476
G1 X165.913 Y102.397 E39.05852
G1 X166.147 Y103.237 E39.08228
G1 X166.147 Y131.905 E39.86319
G1 X165.83 Y132.797 E39.88898
G1 X165.34 Y133.476 E39.91179
G1 X164.795 Y133.918 E39.93091
G1 X164.353 Y134.163 E39.94467
G1 X163.513 Y134.397 E39.96842
G1 X71.477 Y134.396 E42.47549
G1 X70.619 Y134.155 E42.49977
G1 X69.899 Y133.723 E42.52264
G1 X69.323 Y133.072 E42.54632
G1 X69.026 Y132.424 E42.56573
G1 X68.853 Y131.662 E42.58702
G1 X68.854 Y103.227 E43.36159
G1 X69.095 Y102.369 E43.38587
G1 X69.527 Y101.649 E43.40874
G1 X70.178 Y101.073 E43.43242
G0 F6000 X70.48 Y101.535
G1 F900 X71.003 Y101.295 E43.44809
G1 X71.647 Y101.149 E43.46608
G1 X163.562 Y101.149 E45.96985
G1 X164.288 Y101.407 E45.99084
G1 X164.849 Y101.812 E46.00968
G1 X165.244 Y102.299 E46.02676
G1 X165.404 Y102.605 E46.03617
G1 X165.601 Y103.312 E46.05616
G1 X165.601 Y131.812 E46.8325
G1 X165.343 Y132.538 E46.85349
G1 X164.938 Y133.099 E46.87234
G1 X164.451 Y133.494 E46.88942
G1 X164.145 Y133.654 E46.89883
G1 X163.438 Y133.851 E46.91882
G1 X71.554 Y133.85 E49.42174
G1 X70.835 Y133.648 E49.44209
G1 X70.253 Y133.299 E49.46057
G1 X69.785 Y132.77 E49.47981
G1 X69.545 Y132.247 E49.49549
G1 X69.399 Y131.603 E49.51348
G1 X69.4 Y103.304 E50.28434
G1 X69.602 Y102.585 E50.30469
G1 X69.951 Y102.003 E50.32317
G1 X70.48 Y101.535 E50.34241
G0 F6000 X70.782 Y101.997
G1 F900 X71.124 Y101.827 E50.35282
G1 X71.706 Y101.695 E50.36907
G1 X163.469 Y101.695 E52.8687
G1 X164.029 Y101.894 E52.88489
G1 X164.529 Y102.255 E52.90169
G1 X164.806 Y102.626 E52.9143
G1 X164.894 Y102.807 E52.91978
G1 X165.055 Y103.386 E52.93615
G1 X165.055 Y131.719 E53.70795
G1 X164.856 Y132.279 E53.72414
G1 X164.495 Y132.779 E53.74093
G1 X164.124 Y133.056 E53.75355
G1 X163.943 Y133.144 E53.75903
G1 X163.364 Y133.305 E53.7754
G1 X71.63 Y133.304 E56.27424
G1 X71.052 Y133.142 E56.29059
G1 X70.607 Y132.875 E56.30473
G1 X70.247 Y132.468 E56.31953
G1 X70.077 Y132.126 E56.32993
G1 X69.945 Y131.544 E56.34619
G1 X69.946 Y103.38 E57.11338
G1 X70.108 Y102.802 E57.12973
G1 X70.375 Y102.357 E57.14386
G1 X70.782 Y101.997 E57.15866
G1 F2400 E54.15866
G0 F6000 X71.31 Y102.953
G1 F2400 E57.15866
G1 F900 X71.525 Y102.834 E57.16536
G1 X71.706 Y102.787 E57.17045
G1 X163.293 Y102.787 E59.66529
G1 X163.472 Y102.833 E59.67032
G1 X163.689 Y102.952 E59.67706
G1 X163.851 Y103.128 E59.68358
G1 X163.963 Y103.46 E59.69312
G1 X163.963 Y131.543 E60.45811
G1 X163.917 Y131.722 E60.46314
G1 X163.798 Y131.939 E60.46988
G1 X163.622 Y132.101 E60.4764
G1 X163.29 Y132.213 E60.48594
G1 X71.706 Y132.212 E62.9807
G1 X71.375 Y132.099 E62.99022
G1 X71.203 Y131.94 E62.9966
G1 X71.084 Y131.725 E63.0033
G1 X71.037 Y131.544 E63.00839
G1 X71.038 Y103.456 E63.77351
G1 X71.151 Y103.125 E63.78304
G1 X71.31 Y102.953 E63.78942
G0 F6000 X71.046 Y102.475
G1 F900 X71.261 Y102.356 E63.79611
G1 X71.706 Y102.241 E63.80863
G1 X163.375 Y102.241 E66.3057
G1 X163.735 Y102.354 E66.31598
G1 X164.091 Y102.582 E66.32749
G1 X164.368 Y102.953 E66.34011
G1 X164.509 Y103.46 E66.35444
G1 X164.509 Y131.625 E67.12166
G1 X164.396 Y131.985 E67.13193
G1 X164.168 Y132.341 E67.14345
G1 X163.797 Y132.618 E67.15606
G1 X163.29 Y132.759 E67.1704
G1 X71.706 Y132.758 E69.66515
G1 X71.199 Y132.616 E69.67949
G1 X71.004 Y132.5 E69.68567
G1 X70.725 Y132.204 E69.69675
G1 X70.606 Y131.989 E69.70345
G1 X70.491 Y131.544 E69.71597
G1 X70.492 Y103.456 E70.48109
G1 X70.634 Y102.949 E70.49543
G1 X70.75 Y102.754 E70.50161
G1 X71.046 Y102.475 E70.51269
G1 F2400 E67.51269
;MESH:Stereo Camera Fixture - Bottom v3.stl
G0 F6000 X71.835 Y103.584
G0 X72.776 Y130.474
;TYPE:WALL-INNER
G1 F2400 E70.51269
G1 F900 X162.225 Y130.475 E72.94928
G1 X162.225 Y104.525 E73.65616
G1 X72.776 Y104.526 E76.09276
G1 X72.776 Y130.474 E76.79958
G0 F6000 X72.23 Y131.02
G1 F900 X162.771 Y131.021 E79.26592
G1 X162.771 Y103.979 E80.00255
G1 X72.23 Y103.98 E82.46889
G1 X72.23 Y131.02 E83.20546
G0 F6000 X71.683 Y131.474
;TYPE:WALL-OUTER
G1 F900 X71.765 Y131.566 E83.20882
G1 X163.264 Y131.567 E85.70126
G1 X163.317 Y131.472 E85.70422
G1 X163.317 Y103.486 E86.46656
G1 X163.222 Y103.433 E86.46952
G1 X71.776 Y103.433 E88.96052
G1 X71.684 Y103.515 E88.96387
G1 X71.683 Y131.474 E89.72548
G0 F6000 X71.765 Y131.566
G0 X71.842 Y131.566
G0 X72.29 Y130.959
G0 X72.907 Y129.97
G0 X73.28 Y129.97
;TYPE:SKIN
G1 F900 X73.28 Y105.03 E90.40485
G1 X161.721 Y105.029 E92.81398
G1 X161.721 Y129.971 E93.4934
G1 X73.28 Y129.97 E95.90254
G0 F6000 X74.1 Y129.696
G1 F900 X73.553 Y129.148 E95.92363
G0 F6000 X73.553 Y128.376
G1 F900 X74.872 Y129.696 E95.97446
G0 F6000 X75.644 Y129.696
G1 F900 X73.553 Y127.604 E96.05504
G0 F6000 X73.553 Y126.832
G1 F900 X76.417 Y129.696 E96.16537
G0 F6000 X77.189 Y129.696
G1 F900 X73.553 Y126.06 E96.30544
G0 F6000 X73.553 Y125.288
G1 F900 X77.961 Y129.696 E96.47525
G0 F6000 X78.733 Y129.696
G1 F900 X73.553 Y124.515 E96.67482
G0 F6000 X73.553 Y123.743
G1 F900 X79.505 Y129.696 E96.90413
G0 F6000 X80.277 Y129.696
G1 F900 X73.553 Y122.971 E97.16318
G0 F6000 X73.553 Y122.199
G1 F900 X81.049 Y129.696 E97.45197
G0 F6000 X81.822 Y129.696
G1 F900 X73.553 Y121.427 E97.77052
G0 F6000 X73.553 Y120.655
G1 F900 X82.594 Y129.696 E98.1188
G0 F6000 X83.366 Y129.696
G1 F900 X73.553 Y119.882 E98.49685
G0 F6000 X73.553 Y119.11
G1 F900 X84.138 Y129.696 E98.90464
G0 F6000 X84.91 Y129.696
G1 F900 X73.553 Y118.338 E99.34217
G0 F6000 X73.553 Y117.566
G1 F900 X85.682 Y129.696 E99.80944
G0 F6000 X86.455 Y129.696
G1 F900 X73.553 Y116.794 E100.30646
G0 F6000 X73.553 Y116.022
G1 F900 X87.227 Y129.696 E100.83323
G0 F6000 X87.999 Y129.696
G1 F900 X73.553 Y115.249 E101.38976
G0 F6000 X73.553 Y114.477
G1 F900 X88.771 Y129.696 E101.97602
G0 F6000 X89.543 Y129.696
G1 F900 X73.553 Y113.705 E102.59203
G0 F6000 X73.553 Y112.933
G1 F900 X90.315 Y129.696 E103.23777
G0 F6000 X91.088 Y129.696
G1 F900 X73.553 Y112.161 E103.91328
G0 F6000 X73.553 Y111.389
G1 F900 X91.86 Y129.696 E104.61852
G0 F6000 X92.632 Y129.696
G1 F900 X73.553 Y110.616 E105.35353
G0 F6000 X73.553 Y109.844
G1 F900 X93.404 Y129.696 E106.11827
G0 F6000 X94.176 Y129.696
G1 F900 X73.553 Y109.072 E106.91276
G0 F6000 X73.553 Y108.3
G1 F900 X94.948 Y129.696 E107.73698
G0 F6000 X95.721 Y129.696
G1 F900 X73.553 Y107.528 E108.59096
G0 F6000 X73.553 Y106.756
G1 F900 X96.493 Y129.696 E109.47469
G0 F6000 X97.265 Y129.696
G1 F900 X73.553 Y105.983 E110.38817
G0 F6000 X73.643 Y105.302
G1 F900 X98.037 Y129.696 E111.32791
G0 F6000 X98.809 Y129.696
G1 F900 X74.415 Y105.302 E112.26764
G0 F6000 X75.188 Y105.302
G1 F900 X99.581 Y129.696 E113.20736
G0 F6000 X100.354 Y129.696
G1 F900 X75.96 Y105.302 E114.14709
G0 F6000 X76.732 Y105.302
G1 F900 X101.126 Y129.696 E115.08683
G0 F6000 X101.898 Y129.696
G1 F900 X77.504 Y105.302 E116.02657
G0 F6000 X78.276 Y105.302
G1 F900 X102.67 Y129.696 E116.9663
G0 F6000 X103.443 Y129.696
G1 F900 X79.048 Y105.302 E117.90606
G0 F6000 X79.821 Y105.302
G1 F900 X104.215 Y129.696 E118.84579
G0 F6000 X104.987 Y129.696
G1 F900 X80.593 Y105.302 E119.78553
G0 F6000 X81.365 Y105.302
G1 F900 X105.759 Y129.696 E120.72527
G0 F6000 X106.532 Y129.696
G1 F900 X82.137 Y105.302 E121.66502
G0 F6000 X82.909 Y105.302
G1 F900 X107.304 Y129.696 E122.60478
G0 F6000 X108.076 Y129.696
G1 F900 X83.681 Y105.302 E123.54453
G0 F6000 X84.454 Y105.302
G1 F900 X108.848 Y129.696 E124.48427
G0 F6000 X109.62 Y129.696
G1 F900 X85.226 Y105.302 E125.42401
G0 F6000 X85.998 Y105.302
G1 F900 X110.392 Y129.696 E126.36374
G0 F6000 X111.164 Y129.696
G1 F900 X86.77 Y105.302 E127.30348
G0 F6000 X87.542 Y105.302
G1 F900 X111.937 Y129.696 E128.24323
G0 F6000 X112.709 Y129.696
G1 F900 X88.314 Y105.302 E129.18299
G0 F6000 X89.086 Y105.302
G1 F900 X113.481 Y129.696 E130.12274
G0 F6000 X114.253 Y129.696
G1 F900 X89.859 Y105.302 E131.06248
G0 F6000 X90.631 Y105.302
G1 F900 X115.025 Y129.696 E132.00222
G0 F6000 X115.797 Y129.696
G1 F900 X91.403 Y105.302 E132.94195
G0 F6000 X92.175 Y105.302
G1 F900 X116.57 Y129.696 E133.88171
G0 F6000 X117.342 Y129.696
G1 F900 X92.947 Y105.302 E134.82146
G0 F6000 X93.719 Y105.302
G1 F900 X118.114 Y129.696 E135.76122
G0 F6000 X118.886 Y129.696
G1 F900 X94.492 Y105.302 E136.70095
G0 F6000 X95.264 Y105.302
G1 F900 X119.658 Y129.696 E137.64069
G0 F6000 X120.43 Y129.696
G1 F900 X96.036 Y105.302 E138.58043
G0 F6000 X96.808 Y105.302
G1 F900 X121.203 Y129.696 E139.52018
G0 F6000 X121.975 Y129.696
G1 F900 X97.58 Y105.302 E140.45994
G0 F6000 X98.352 Y105.302
G1 F900 X122.747 Y129.696 E141.39969
G0 F6000 X123.519 Y129.696
G1 F900 X99.125 Y105.302 E142.33943
G0 F6000 X99.897 Y105.302
G1 F900 X124.291 Y129.696 E143.27917
G0 F6000 X125.063 Y129.696
G1 F900 X100.669 Y105.302 E144.2189
G0 F6000 X101.441 Y105.302
G1 F900 X125.836 Y129.696 E145.15866
G0 F6000 X126.608 Y129.696
G1 F900 X102.213 Y105.302 E146.09841
G0 F6000 X102.985 Y105.302
G1 F900 X127.38 Y129.696 E147.03817
G0 F6000 X128.152 Y129.696
G1 F900 X103.758 Y105.302 E147.9779
G0 F6000 X104.53 Y105.302
G1 F900 X128.924 Y129.696 E148.91764
G0 F6000 X129.696 Y129.696
G1 F900 X105.302 Y105.302 E149.85738
G0 F6000 X106.074 Y105.302
G1 F900 X130.468 Y129.696 E150.79711
G0 F6000 X131.241 Y129.696
G1 F900 X106.846 Y105.302 E151.73687
G0 F6000 X107.618 Y105.302
G1 F900 X132.013 Y129.696 E152.67662
G0 F6000 X132.786 Y129.697
G1 F900 X108.39 Y105.302 E153.61642
G0 F6000 X109.163 Y105.302
G1 F900 X133.558 Y129.697 E154.55619
G0 F6000 X134.33 Y129.697
G1 F900 X109.935 Y105.302 E155.49597
G0 F6000 X110.707 Y105.302
G1 F900 X135.102 Y129.697 E156.43574
G0 F6000 X135.874 Y129.697
G1 F900 X111.479 Y105.302 E157.37552
G0 F6000 X112.251 Y105.302
G1 F900 X136.646 Y129.697 E158.31529
G0 F6000 X137.419 Y129.697
G1 F900 X113.023 Y105.302 E159.25508
G0 F6000 X113.796 Y105.302
G1 F900 X138.191 Y129.697 E160.19486
G0 F6000 X138.963 Y129.697
G1 F900 X114.568 Y105.302 E161.13463
G0 F6000 X115.34 Y105.302
G1 F900 X139.735 Y129.697 E162.07441
G0 F6000 X140.507 Y129.697
G1 F900 X116.112 Y105.302 E163.01418
G0 F6000 X116.884 Y105.302
G1 F900 X141.279 Y129.697 E163.95396
G0 F6000 X142.052 Y129.697
G1 F900 X117.656 Y105.302 E164.89375
G0 F6000 X118.429 Y105.302
G1 F900 X142.824 Y129.697 E165.83353
G0 F6000 X143.596 Y129.697
G1 F900 X119.201 Y105.302 E166.7733
G0 F6000 X119.973 Y105.302
G1 F900 X144.368 Y129.697 E167.71308
G0 F6000 X145.14 Y129.697
G1 F900 X120.745 Y105.302 E168.65285
G0 F6000 X121.517 Y105.302
G1 F900 X145.912 Y129.697 E169.59262
G0 F6000 X146.685 Y129.697
G1 F900 X122.289 Y105.302 E170.53242
G0 F6000 X123.062 Y105.302
G1 F900 X147.457 Y129.697 E171.47219
G0 F6000 X148.229 Y129.697
G1 F900 X123.834 Y105.302 E172.41197
G0 F6000 X124.606 Y105.302
G1 F900 X149.001 Y129.697 E173.35174
G0 F6000 X149.773 Y129.697
G1 F900 X125.378 Y105.302 E174.29152
G0 F6000 X126.15 Y105.302
G1 F900 X150.545 Y129.697 E175.23129
G0 F6000 X151.318 Y129.697
G1 F900 X126.922 Y105.302 E176.17109
G0 F6000 X127.694 Y105.302
G1 F900 X152.09 Y129.697 E177.11088
G0 F6000 X152.862 Y129.697
G1 F900 X128.467 Y105.302 E178.05065
G0 F6000 X129.239 Y105.302
G1 F900 X153.634 Y129.697 E178.99043
G0 F6000 X154.406 Y129.697
G1 F900 X130.011 Y105.302 E179.9302
