;FLAVOR:Marlin
;TIME:6797
;Filament used: 10.5773m
;Layer height: 0.2
;MINX:53.777
;MINY:99.727
;MINZ:0.2
;MAXX:181.323
;MAXY:135.273
;MAXZ:40
;TARGET_MACHINE.NAME:ELEGOO NEPTUNE 3 Pro
;Generated with Cura_SteamEngine 5.5.0
M140 S70
M105
M190 S70
M104 S215
M105
M109 S215
M82 ;absolute extrusion mode
;ELEGOO NEPTUNE 3 Pro
M220 S100 ;Set the feed speed to 100%
M221 S100 ;Set the flow rate to 100%
G90
G28 ;home
;M420 S1 Z10;Uncomment to enable progressive compensation height of 10mm
G92 E0 ;Reset Extruder
G1 Z0.45 F300
G1 X1.5 Y20 F5000.0 ;Move to start position
G1 Y120.0 F600.0 E15 ;Draw the first line
G1 X0.5 F1000.0 ;Move to side a little
G1 Y20 F600 E30 ;Draw the second line
G92 E0 ;Reset Extruder
G92 E0
G92 E0
G1 F2400 E-3
;LAYER_COUNT:200
;LAYER:0
M107
M204 S500
G0 F6000 X55.598 Y100.08 Z0.2
;TYPE:SKIRT
G1 F2400 E0
G1 F1800 X56.072 Y99.888 E0.02322
G1 X56.57 Y99.773 E0.04642
G1 X57.066 Y99.728 E0.06903
G1 X177.39 Y99.727 E5.53175
G1 X178.088 Y99.737 E5.56345
G1 X178.597 Y99.785 E5.58666
G1 X179.093 Y99.911 E5.60989
G1 X179.562 Y100.112 E5.63306
G1 X179.995 Y100.384 E5.65627
G1 X180.38 Y100.721 E5.6795
G1 X180.708 Y101.113 E5.70271
G1 X180.971 Y101.552 E5.72594
G1 X181.163 Y102.026 E5.74916
G1 X181.278 Y102.524 E5.77236
G1 X181.322 Y103.019 E5.79492
G1 X181.323 Y131.305 E7.07911
G1 X181.314 Y132.032 E7.11212
G1 X181.268 Y132.541 E7.13532
G1 X181.143 Y133.037 E7.15854
G1 X180.942 Y133.507 E7.18175
G1 X180.67 Y133.94 E7.20497
G1 X180.335 Y134.326 E7.22817
G1 X179.943 Y134.655 E7.2514
G1 X179.505 Y134.918 E7.2746
G1 X179.031 Y135.111 E7.29783
G1 X178.533 Y135.227 E7.32105
G1 X178.033 Y135.272 E7.34384
G1 X57.715 Y135.273 E12.80629
G1 X57.017 Y135.264 E12.83798
G1 X56.508 Y135.217 E12.86119
G1 X56.012 Y135.092 E12.88441
G1 X55.542 Y134.891 E12.90762
G1 X55.109 Y134.619 E12.93083
G1 X54.723 Y134.284 E12.95404
G1 X54.394 Y133.892 E12.97727
G1 X54.131 Y133.454 E13.00046
G1 X53.939 Y132.98 E13.02368
G1 X53.823 Y132.482 E13.0469
G1 X53.778 Y131.978 E13.06987
G1 X53.777 Y103.63 E14.35687
G1 X53.786 Y102.965 E14.38706
G1 X53.833 Y102.456 E14.41027
G1 X53.959 Y101.96 E14.43351
G1 X54.16 Y101.49 E14.45671
G1 X54.432 Y101.057 E14.47993
G1 X54.768 Y100.672 E14.50313
G1 X55.16 Y100.343 E14.52636
G1 X55.598 Y100.08 E14.54956
G1 F2400 E11.54956
;MESH:Stereo Webcam Fixture 63.5mm IPD.stl
G0 F6000 X57.474 Y102.335
G0 X57.474 Y103.424
G0 X57.96 Y131.181
G0 X57.869 Y131.181
;TYPE:WALL-INNER
G1 F2400 E14.54956
G1 F1800 X177.231 Y131.181 E19.9686
G1 X177.231 Y103.819 E21.21084
G1 X57.869 Y103.819 E26.62988
G1 X57.869 Y131.181 E27.87212
G0 F6000 X57.323 Y131.727
;TYPE:WALL-OUTER
G1 F1800 X177.777 Y131.727 E33.34074
G1 X177.777 Y103.273 E34.63256
G1 X57.323 Y103.273 E40.10118
G1 X57.323 Y131.727 E41.39299
G0 F6000 X57.523 Y131.727
G0 X57.93 Y131.12
G0 X58.331 Y130.719
;TYPE:SKIN
G1 F1800 X58.331 Y104.281 E42.59328
G1 X176.769 Y104.281 E47.97037
G1 X176.769 Y130.719 E49.17066
G1 X58.331 Y130.719 E54.54776
G0 F6000 X57.958 Y130.719
G0 X59.406 Y131.092
G0 X59.406 Y130.444
G1 F1800 X58.604 Y129.643 E54.59922
G0 F6000 X58.604 Y128.87
G1 F1800 X60.178 Y130.444 E54.70028
G0 F6000 X60.95 Y130.444
G1 F1800 X58.604 Y128.098 E54.8509
G0 F6000 X58.604 Y127.326
G1 F1800 X61.722 Y130.444 E55.0511
G0 F6000 X62.494 Y130.444
G1 F1800 X58.604 Y126.554 E55.30085
G0 F6000 X58.604 Y125.782
G1 F1800 X63.266 Y130.444 E55.60018
G0 F6000 X64.039 Y130.444
G1 F1800 X58.604 Y125.01 E55.9491
G0 F6000 X58.604 Y124.237
G1 F1800 X64.811 Y130.444 E56.34763
G0 F6000 X65.583 Y130.444
G1 F1800 X58.604 Y123.465 E56.79572
G0 F6000 X58.604 Y122.693
G1 F1800 X66.355 Y130.444 E57.29337
G0 F6000 X67.127 Y130.444
G1 F1800 X58.604 Y121.921 E57.8406
G0 F6000 X58.604 Y121.149
G1 F1800 X67.899 Y130.444 E58.43739
G0 F6000 X68.672 Y130.444
G1 F1800 X58.604 Y120.377 E59.08377
G0 F6000 X58.604 Y119.604
G1 F1800 X69.444 Y130.444 E59.77976
G0 F6000 X70.216 Y130.444
G1 F1800 X58.604 Y118.832 E60.52531
G0 F6000 X58.604 Y118.06
G1 F1800 X70.988 Y130.444 E61.32043
G0 F6000 X71.76 Y130.444
G1 F1800 X58.604 Y117.288 E62.16512
G0 F6000 X58.604 Y116.516
G1 F1800 X72.532 Y130.444 E63.05937
G0 F6000 X73.305 Y130.444
G1 F1800 X58.604 Y115.744 E64.00322
G0 F6000 X58.604 Y114.972
G1 F1800 X74.077 Y130.444 E64.99664
G0 F6000 X74.849 Y130.444
G1 F1800 X58.604 Y114.199 E66.03966
G0 F6000 X58.604 Y113.427
G1 F1800 X75.621 Y130.444 E67.13224
G0 F6000 X76.393 Y130.444
G1 F1800 X58.604 Y112.655 E68.27439
G0 F6000 X58.604 Y111.883
G1 F1800 X77.165 Y130.444 E69.46611
G0 F6000 X77.938 Y130.444
G1 F1800 X58.604 Y111.111 E70.70743
G0 F6000 X58.604 Y110.339
G1 F1800 X78.71 Y130.444 E71.99831
G0 F6000 X79.482 Y130.444
G1 F1800 X58.604 Y109.566 E73.33879
G0 F6000 X58.604 Y108.794
G1 F1800 X80.254 Y130.444 E74.72884
G0 F6000 X81.026 Y130.444
G1 F1800 X58.604 Y108.022 E76.16845
G0 F6000 X58.604 Y107.25
G1 F1800 X81.798 Y130.444 E77.65763
G0 F6000 X82.57 Y130.444
G1 F1800 X58.604 Y106.478 E79.19638
G0 F6000 X58.604 Y105.706
G1 F1800 X83.343 Y130.444 E80.78472
G0 F6000 X84.115 Y130.444
G1 F1800 X58.604 Y104.933 E82.42267
G0 F6000 X58.996 Y104.554
G1 F1800 X84.887 Y130.444 E84.08498
G0 F6000 X85.659 Y130.444
G1 F1800 X59.768 Y104.554 E85.74729
G0 F6000 X60.541 Y104.554
G1 F1800 X86.431 Y130.444 E87.40957
G0 F6000 X87.203 Y130.444
G1 F1800 X61.313 Y104.554 E89.07184
G0 F6000 X62.085 Y104.554
G1 F1800 X87.976 Y130.444 E90.73415
G0 F6000 X88.748 Y130.444
G1 F1800 X62.857 Y104.554 E92.39646
G0 F6000 X63.629 Y104.554
G1 F1800 X89.52 Y130.444 E94.05877
G0 F6000 X90.292 Y130.444
G1 F1800 X64.401 Y104.554 E95.72108
G0 F6000 X65.174 Y104.554
G1 F1800 X91.064 Y130.444 E97.38336
G0 F6000 X91.836 Y130.444
G1 F1800 X65.946 Y104.554 E99.04564
G0 F6000 X66.718 Y104.554
G1 F1800 X92.609 Y130.444 E100.70795
G0 F6000 X93.381 Y130.444
G1 F1800 X67.49 Y104.554 E102.37026
G0 F6000 X68.262 Y104.554
G1 F1800 X94.153 Y130.444 E104.03257
G0 F6000 X94.925 Y130.444
G1 F1800 X69.034 Y104.554 E105.69488
G0 F6000 X69.806 Y104.554
G1 F1800 X95.697 Y130.444 E107.35719
G0 F6000 X96.469 Y130.444
G1 F1800 X70.579 Y104.554 E109.01947
G0 F6000 X71.351 Y104.554
G1 F1800 X97.242 Y130.444 E110.68178
G0 F6000 X98.014 Y130.444
G1 F1800 X72.123 Y104.554 E112.34409
G0 F6000 X72.895 Y104.554
G1 F1800 X98.786 Y130.444 E114.0064
G0 F6000 X99.558 Y130.444
G1 F1800 X73.667 Y104.554 E115.66871
G0 F6000 X74.439 Y104.554
G1 F1800 X100.33 Y130.444 E117.33102
G0 F6000 X101.102 Y130.444
G1 F1800 X75.212 Y104.554 E118.9933
G0 F6000 X75.984 Y104.554
G1 F1800 X101.874 Y130.444 E120.65558
G0 F6000 X102.647 Y130.444
G1 F1800 X76.756 Y104.554 E122.31789
G0 F6000 X77.528 Y104.554
G1 F1800 X103.419 Y130.444 E123.9802
G0 F6000 X104.191 Y130.444
G1 F1800 X78.3 Y104.554 E125.64251
G0 F6000 X79.072 Y104.554
G1 F1800 X104.963 Y130.444 E127.30482
G0 F6000 X105.735 Y130.444
G1 F1800 X79.845 Y104.554 E128.9671
G0 F6000 X80.617 Y104.554
G1 F1800 X106.507 Y130.444 E130.62938
G0 F6000 X107.28 Y130.444
G1 F1800 X81.389 Y104.554 E132.29169
G0 F6000 X82.161 Y104.554
G1 F1800 X108.052 Y130.444 E133.954
G0 F6000 X108.824 Y130.444
G1 F1800 X82.933 Y104.554 E135.61631
G0 F6000 X83.705 Y104.554
G1 F1800 X109.596 Y130.444 E137.27862
G0 F6000 X110.368 Y130.444
G1 F1800 X84.478 Y104.554 E138.9409
G0 F6000 X85.25 Y104.554
G1 F1800 X111.14 Y130.444 E140.60317
G0 F6000 X111.913 Y130.444
G1 F1800 X86.022 Y104.554 E142.26548
G0 F6000 X86.794 Y104.554
G1 F1800 X112.685 Y130.444 E143.92779
G0 F6000 X113.457 Y130.444
G1 F1800 X87.566 Y104.554 E145.5901
G0 F6000 X88.338 Y104.554
G1 F1800 X114.229 Y130.444 E147.25241
G0 F6000 X115.001 Y130.444
G1 F1800 X89.111 Y104.554 E148.91469
G0 F6000 X89.883 Y104.554
G1 F1800 X115.773 Y130.444 E150.57697
G0 F6000 X116.546 Y130.444
G1 F1800 X90.655 Y104.554 E152.23928
G0 F6000 X91.427 Y104.554
G1 F1800 X117.318 Y130.444 E153.90159
G0 F6000 X118.09 Y130.444
G1 F1800 X92.199 Y104.554 E155.5639
G0 F6000 X92.971 Y104.554
G1 F1800 X118.862 Y130.444 E157.22621
G0 F6000 X119.634 Y130.444
G1 F1800 X93.743 Y104.554 E158.88852
G0 F6000 X94.516 Y104.554
G1 F1800 X120.406 Y130.444 E160.5508
G0 F6000 X121.179 Y130.444
G1 F1800 X95.288 Y104.554 E162.21311
G0 F6000 X96.06 Y104.554
G1 F1800 X121.951 Y130.444 E163.87542
G0 F6000 X122.723 Y130.444
G1 F1800 X96.832 Y104.554 E165.53773
G0 F6000 X97.604 Y104.554
G1 F1800 X123.495 Y130.444 E167.20004
G0 F6000 X124.267 Y130.444
G1 F1800 X98.376 Y104.554 E168.86235
G0 F6000 X99.149 Y104.554
G1 F1800 X125.039 Y130.444 E170.52463
G0 F6000 X125.811 Y130.444
G1 F1800 X99.921 Y104.554 E172.18691
G0 F6000 X100.693 Y104.554
G1 F1800 X126.584 Y130.444 E173.84922
G0 F6000 X127.356 Y130.444
G1 F1800 X101.465 Y104.554 E175.51153
G0 F6000 X102.237 Y104.554
G1 F1800 X128.128 Y130.444 E177.17384
G0 F6000 X128.9 Y130.444
G1 F1800 X103.009 Y104.554 E178.83615
G0 F6000 X103.782 Y104.554
G1 F1800 X129.672 Y130.444 E180.49843
G0 F6000 X130.444 Y130.444
G1 F1800 X104.554 Y104.554 E182.16071
G0 F6000 X105.326 Y104.554
G1 F1800 X131.217 Y130.444 E183.82302
G0 F6000 X131.989 Y130.444
G1 F1800 X106.098 Y104.554 E185.48533
G0 F6000 X106.87 Y104.554
G1 F1800 X132.761 Y130.444 E187.14764
G0 F6000 X133.533 Y130.444
G1 F1800 X107.642 Y104.554 E188.80995
G0 F6000 X108.415 Y104.554
G1 F1800 X134.305 Y130.444 E190.47223
G0 F6000 X135.077 Y130.444
G1 F1800 X109.187 Y104.554 E192.1345
G0 F6000 X109.959 Y104.554
G1 F1800 X135.85 Y130.444 E193.79681
G0 F6000 X136.622 Y130.444
G1 F1800 X110.731 Y104.554 E195.45912
G0 F6000 X111.503 Y104.554
G1 F1800 X137.394 Y130.444 E197.12143
G0 F6000 X138.166 Y130.444
G1 F1800 X112.275 Y104.554 E198.78375
G0 F6000 X113.047 Y104.554
G1 F1800 X138.938 Y130.444 E200.44606
G0 F6000 X139.71 Y130.444
G1 F1800 X113.82 Y104.554 E202.10833
G0 F6000 X114.592 Y104.554
G1 F1800 X140.483 Y130.444 E203.77064
G0 F6000 X141.255 Y130.444
G1 F1800 X115.364 Y104.554 E205.43295
G0 F6000 X116.136 Y104.554
G1 F1800 X142.027 Y130.444 E207.09526
G0 F6000 X142.799 Y130.444
G1 F1800 X116.908 Y104.554 E208.75757
G0 F6000 X117.68 Y104.554
G1 F1800 X143.571 Y130.444 E210.41989
G0 F6000 X144.343 Y130.444
G1 F1800 X118.453 Y104.554 E212.08216
G0 F6000 X119.225 Y104.554
G1 F1800 X145.115 Y130.444 E213.74444
G0 F6000 X145.888 Y130.444
G1 F1800 X119.997 Y104.554 E215.40675
G0 F6000 X120.769 Y104.554
G1 F1800 X146.66 Y130.444 E217.06906
G0 F6000 X147.432 Y130.444
G1 F1800 X121.541 Y104.554 E218.73137
G0 F6000 X122.313 Y104.554
G1 F1800 X148.204 Y130.444 E220.39368
G0 F6000 X148.976 Y130.444
G1 F1800 X123.086 Y104.554 E222.05596
G0 F6000 X123.858 Y104.554
G1 F1800 X149.748 Y130.444 E223.71824
G0 F6000 X150.521 Y130.444
G1 F1800 X124.63 Y104.554 E225.38055
G0 F6000 X125.402 Y104.554
G1 F1800 X151.293 Y130.444 E227.04286
G0 F6000 X152.065 Y130.444
G1 F1800 X126.174 Y104.554 E228.70517
G0 F6000 X126.946 Y104.554
G1 F1800 X152.837 Y130.444 E230.36748
G0 F6000 X153.609 Y130.444
G1 F1800 X127.719 Y104.554 E232.02976
G0 F6000 X128.491 Y104.554
G1 F1800 X154.381 Y130.444 E233.69204
G0 F6000 X155.154 Y130.444
G1 F1800 X129.263 Y104.554 E235.35435
G0 F6000 X130.035 Y104.554
G1 F1800 X155.926 Y130.444 E237.01666
G0 F6000 X156.698 Y130.444
G1 F1800 X130.807 Y104.554 E238.67897
G0 F6000 X131.579 Y104.554
G1 F1800 X157.47 Y130.444 E240.34128
G0 F6000 X158.242 Y130.444
G1 F1800 X132.352 Y104.554 E242.00356
G0 F6000 X133.124 Y104.554
G1 F1800 X159.014 Y130.444 E243.66583
G0 F6000 X159.787 Y130.444
G1 F1800 X133.896 Y104.554 E245.32814
G0 F6000 X134.668 Y104.554
G1 F1800 X160.559 Y130.444 E246.99045
G0 F6000 X161.331 Y130.444
G1 F1800 X135.44 Y104.554 E248.65277
G0 F6000 X136.212 Y104.554
G1 F1800 X162.103 Y130.444 E250.31508
G0 F6000 X162.875 Y130.444
G1 F1800 X136.984 Y104.554 E251.97739
G0 F6000 X137.757 Y104.554
G1 F1800 X163.647 Y130.444 E253.63966
G0 F6000 X164.42 Y130.444
G1 F1800 X138.529 Y104.554 E255.30197
G0 F6000 X139.301 Y104.554
G1 F1800 X165.192 Y130.444 E256.96428
G0 F6000 X165.964 Y130.444
G1 F1800 X140.073 Y104.554 E258.62659
G0 F6000 X140.845 Y104.554
G1 F1800 X166.736 Y130.444 E260.28891
G0 F6000 X167.508 Y130.444
G1 F1800 X141.617 Y104.554 E261.95122
G0 F6000 X142.39 Y104.554
G1 F1800 X168.28 Y130.444 E263.61349
G0 F6000 X169.052 Y130.444
G1 F1800 X143.162 Y104.554 E265.27577
G0 F6000 X143.934 Y104.554
G1 F1800 X169.825 Y130.444 E266.93808
G0 F6000 X170.597 Y130.444
G1 F1800 X144.706 Y104.554 E268.60039
G0 F6000 X145.478 Y104.554
G1 F1800 X171.369 Y130.444 E270.2627
G0 F6000 X172.141 Y130.444
G1 F1800 X146.25 Y104.554 E271.92501
G0 F6000 X147.023 Y104.554
G1 F1800 X172.913 Y130.444 E273.58729
G0 F6000 X173.685 Y130.444
G1 F1800 X147.795 Y104.554 E275.24957
G0 F6000 X148.567 Y104.554
G1 F1800 X174.458 Y130.444 E276.91188
G0 F6000 X175.23 Y130.444
G1 F1800 X149.339 Y104.554 E278.57419
G0 F6000 X150.111 Y104.554
G1 F1800 X176.002 Y130.444 E280.2365
G0 F6000 X176.495 Y130.165
G1 F1800 X150.883 Y104.554 E281.8809
G0 F6000 X151.656 Y104.554
G1 F1800 X176.495 Y129.393 E283.4757
G0 F6000 X176.495 Y128.621
G1 F1800 X152.428 Y104.554 E285.02093
G0 F6000 X153.2 Y104.554
G1 F1800 X176.495 Y127.849 E286.51659
G0 F6000 X176.495 Y127.076
G1 F1800 X153.972 Y104.554 E287.96266
G0 F6000 X154.744 Y104.554
G1 F1800 X176.495 Y126.304 E289.35916
G0 F6000 X176.495 Y125.532
G1 F1800 X155.516 Y104.554 E290.70609
G0 F6000 X156.288 Y104.554
G1 F1800 X176.495 Y124.76 E292.00346
G0 F6000 X176.495 Y123.988
G1 F1800 X157.061 Y104.554 E293.25123
G0 F6000 X157.833 Y104.554
G1 F1800 X176.495 Y123.216 E294.44943
G0 F6000 X176.495 Y122.444
G1 F1800 X158.605 Y104.554 E295.59806
G0 F6000 X159.377 Y104.554
G1 F1800 X176.495 Y121.671 E296.6971
G0 F6000 X176.495 Y120.899
G1 F1800 X160.149 Y104.554 E297.74657
G0 F6000 X160.921 Y104.554
G1 F1800 X176.495 Y120.127 E298.74647
G0 F6000 X176.495 Y119.355
G1 F1800 X161.694 Y104.554 E299.69678
G0 F6000 X162.466 Y104.554
G1 F1800 X176.495 Y118.583 E300.59751
G0 F6000 X176.495 Y117.811
G1 F1800 X163.238 Y104.554 E301.44869
G0 F6000 X164.01 Y104.554
G1 F1800 X176.495 Y117.038 E302.25026
G0 F6000 X176.495 Y116.266
G1 F1800 X164.782 Y104.554 E303.00226
G0 F6000 X165.554 Y104.554
G1 F1800 X176.495 Y115.494 E303.7047
G0 F6000 X176.495 Y114.722
G1 F1800 X166.327 Y104.554 E304.35754
G0 F6000 X167.099 Y104.554
G1 F1800 X176.495 Y113.95 E304.96082
G0 F6000 X176.495 Y113.178
G1 F1800 X167.871 Y104.554 E305.51453
G0 F6000 X168.643 Y104.554
G1 F1800 X176.495 Y112.405 E306.01863
G0 F6000 X176.495 Y111.633
G1 F1800 X169.415 Y104.554 E306.47318
G0 F6000 X170.187 Y104.554
G1 F1800 X176.495 Y110.861 E306.87815
G0 F6000 X176.495 Y110.089
G1 F1800 X170.96 Y104.554 E307.23353
G0 F6000 X171.732 Y104.554
G1 F1800 X176.495 Y109.317 E307.53934
G0 F6000 X176.495 Y108.545
G1 F1800 X172.504 Y104.554 E307.79558
G0 F6000 X173.276 Y104.554
G1 F1800 X176.495 Y107.772 E308.00223
G0 F6000 X176.495 Y107
G1 F1800 X174.048 Y104.554 E308.15931
G0 F6000 X174.82 Y104.554
G1 F1800 X176.495 Y106.228 E308.26682
G0 F6000 X176.495 Y105.456
G1 F1800 X175.592 Y104.554 E308.32476
G0 F6000 X176.365 Y104.554
G1 F1800 X176.495 Y104.684 E308.33311
G1 F2400 E305.33311
;MESH:NONMESH
G0 F600 X176.495 Y104.684 Z0.4
G0 F6000 X177.142 Y104.684
G0 X58.017 Y104.007
G0 X58.058 Y102.335
G0 X55.598 Y100.08
;TIME_ELAPSED:251.325761
;LAYER:1
M106 S85
;TYPE:SKIRT
G1 F2400 E308.33311
G1 F1800 X56.072 Y99.888 E308.35097
G1 X56.57 Y99.773 E308.36882
G1 X57.066 Y99.728 E308.38621
G1 X177.39 Y99.727 E312.58831
G1 X178.088 Y99.737 E312.61268
G1 X178.597 Y99.785 E312.63054
G1 X179.093 Y99.911 E312.64841
G1 X179.562 Y100.112 E312.66623
G1 X179.995 Y100.384 E312.68409
G1 X180.38 Y100.721 E312.70196
G1 X180.708 Y101.113 E312.71981
G1 X180.971 Y101.552 E312.73768
G1 X181.163 Y102.026 E312.75554
G1 X181.278 Y102.524 E312.77339
G1 X181.322 Y103.019 E312.79074
G1 X181.323 Y131.305 E313.77858
G1 X181.314 Y132.032 E313.80397
G1 X181.268 Y132.541 E313.82182
G1 X181.143 Y133.037 E313.83968
G1 X180.942 Y133.507 E313.85753
G1 X180.67 Y133.94 E313.87539
G1 X180.335 Y134.326 E313.89324
G1 X179.943 Y134.655 E313.91111
G1 X179.505 Y134.918 E313.92896
G1 X179.031 Y135.111 E313.94683
G1 X178.533 Y135.227 E313.96469
G1 X178.033 Y135.272 E313.98222
G1 X57.715 Y135.273 E318.1841
G1 X57.017 Y135.264 E318.20848
G1 X56.508 Y135.217 E318.22633
