;FLAVOR:Marlin
;TIME:10591
;Filament used: 4.46639m
;Layer height: 0.1
;MINX:58.73
;MINY:83.053
;MINZ:0.12
;MAXX:165.997
;MAXY:151.947
;MAXZ:8.32
;TARGET_MACHINE.NAME:ELEGOO NEPTUNE 3 Pro
;Generated with Cura_SteamEngine 5.5.0
M140 S70
M105
M190 S70
M104 S210
M105
M109 S210
M82 ;absolute extrusion mode
;ELEGOO NEPTUNE 3 Pro
M220 S100 ;Set the feed speed to 100%
M221 S100 ;Set the flow rate to 100%
G90
G28 ;home
;M420 S1 Z10;Uncomment to enable progressive compensation height of 10mm
G92 E0 ;Reset Extruder
G1 Z0.45 F300
G1 X1.5 Y20 F5000.0 ;Move to start position
G1 Y120.0 F600.0 E15 ;Draw the first line
G1 X0.5 F1000.0 ;Move to side a little
G1 Y20 F600 E30 ;Draw the second line
G92 E0 ;Reset Extruder
G92 E0
G92 E0
G1 F2400 E-3
;LAYER_COUNT:83
;LAYER:0
M107
M204 S500
G0 F6000 X70.765 Y85.553 Z0.12
;TYPE:SKIRT
G1 F2400 E0
G1 F900 X72.195 Y84.396 E0.05011
G1 X73.988 Y83.524 E0.10442
G1 X76.045 Y83.053 E0.1619
G1 X157.962 Y83.059 E2.39332
G1 X159.265 Y83.314 E2.42949
G1 X160.417 Y83.69 E2.4625
G1 X161.835 Y84.35 E2.50511
G1 X163.41 Y85.603 E2.55993
G1 X164.659 Y87.151 E2.61411
G1 X165.533 Y88.974 E2.66918
G1 X165.997 Y90.989 E2.72551
G1 X165.991 Y143.918 E4.1673
G1 X165.722 Y145.275 E4.20498
G1 X165.392 Y146.29 E4.23405
G1 X164.702 Y147.784 E4.27888
G1 X163.449 Y149.358 E4.33368
G1 X161.899 Y150.609 E4.38794
G1 X160.076 Y151.483 E4.44301
G1 X158.061 Y151.947 E4.49934
G1 X76.16 Y151.941 E6.73032
G1 X75.139 Y151.759 E6.75858
G1 X73.593 Y151.273 E6.80272
G1 X72.243 Y150.636 E6.84338
G1 X70.7 Y149.405 E6.89715
G1 X69.441 Y147.849 E6.95167
G1 X68.567 Y146.026 E7.00674
G1 X68.103 Y144.012 E7.06304
G1 X68.102 Y125.427 E7.5693
G1 X67.012 Y125.086 E7.60041
G1 X65.773 Y124.229 E7.64145
G1 X64.821 Y123.15 E7.68064
G1 X64.232 Y122.042 E7.71483
G1 X63.558 Y119.725 E7.78056
G1 X63.437 Y118.334 E7.81859
G1 X63.607 Y117.356 E7.84563
G1 X64.205 Y115.284 E7.90438
G1 X64.639 Y114.38 E7.93169
G1 X64.98 Y113.902 E7.94769
G1 X65.173 Y113.303 E7.96483
G1 X65.888 Y112.104 E8.00286
G1 X66.761 Y111.251 E8.0361
G1 X67.217 Y110.949 E8.051
G1 X66.615 Y110.883 E8.0675
G1 X64.118 Y110.155 E8.13835
G1 X62.699 Y109.373 E8.18248
G1 X60.383 Y107.057 E8.2717
G1 X59.607 Y105.649 E8.3155
G1 X58.853 Y103.076 E8.38853
G1 X58.73 Y101.656 E8.42736
G1 X58.904 Y100.67 E8.45463
G1 X59.603 Y98.262 E8.52294
G1 X60.315 Y96.939 E8.56386
G1 X62.468 Y94.663 E8.6492
G1 X63.892 Y93.779 E8.69486
G1 X66.634 Y93.008 E8.77245
G1 X67.886 Y92.887 E8.80671
G1 X68.108 Y92.904 E8.81278
G1 X68.109 Y91.08 E8.86246
G1 X68.43 Y89.559 E8.90481
G1 X68.94 Y88.036 E8.94856
G1 X69.943 Y86.516 E8.99817
G1 X70.765 Y85.553 E9.03266
G0 F6000 X71.147 Y85.945
G1 F900 X72.487 Y84.861 E9.0796
G1 X74.172 Y84.042 E9.13064
G1 X76.106 Y83.599 E9.18469
G1 X157.908 Y83.605 E11.41298
G1 X159.16 Y83.85 E11.44773
G1 X160.186 Y84.185 E11.47713
G1 X161.547 Y84.819 E11.51803
G1 X163.022 Y85.992 E11.56936
G1 X164.195 Y87.446 E11.62025
G1 X165.014 Y89.154 E11.67185
G1 X165.451 Y91.051 E11.72488
G1 X165.445 Y143.862 E13.16345
G1 X165.186 Y145.169 E13.19975
G1 X164.896 Y146.061 E13.2253
G1 X164.233 Y147.497 E13.26838
G1 X163.06 Y148.97 E13.31967
G1 X161.604 Y150.145 E13.37064
G1 X159.896 Y150.964 E13.42224
G1 X157.999 Y151.401 E13.47527
G1 X76.211 Y151.395 E15.70318
G1 X75.235 Y151.221 E15.73018
G1 X73.826 Y150.779 E15.77041
G1 X72.535 Y150.17 E15.80929
G1 X71.086 Y149.014 E15.85978
G1 X69.905 Y147.554 E15.91094
G1 X69.086 Y145.846 E15.96253
G1 X68.649 Y143.95 E16.01553
G1 X68.648 Y124.986 E16.53212
G1 X68.412 Y124.952 E16.53861
G1 X67.255 Y124.59 E16.57163
G1 X66.136 Y123.816 E16.6087
G1 X65.275 Y122.84 E16.64415
G1 X64.739 Y121.833 E16.67522
G1 X64.098 Y119.627 E16.7378
G1 X63.987 Y118.356 E16.77255
G1 X64.132 Y117.507 E16.79602
G1 X64.718 Y115.476 E16.8536
G1 X65.131 Y114.616 E16.87959
G1 X65.477 Y114.147 E16.89546
G1 X65.642 Y113.583 E16.91147
G1 X66.32 Y112.446 E16.94753
G1 X67.143 Y111.642 E16.97887
G1 X68.084 Y111.046 E17.00921
G1 X68.653 Y110.877 E17.02538
G1 X68.652 Y110.353 E17.03965
G1 X68.282 Y110.432 E17.04996
G1 X67.753 Y110.459 E17.06439
G1 X66.72 Y110.345 E17.0927
G1 X64.327 Y109.647 E17.1606
G1 X63.031 Y108.933 E17.20091
G1 X60.823 Y106.725 E17.28597
G1 X60.115 Y105.44 E17.32593
G1 X59.392 Y102.974 E17.39593
G1 X59.28 Y101.681 E17.43129
G1 X59.442 Y100.765 E17.45663
G1 X60.111 Y98.472 E17.52169
G1 X60.762 Y97.261 E17.55914
G1 X62.816 Y95.09 E17.64055
G1 X64.113 Y94.284 E17.68215
G1 X66.74 Y93.546 E17.75648
G1 X67.939 Y93.43 E17.78929
G1 X68.654 Y93.546 E17.80903
G1 X68.655 Y91.139 E17.87459
G1 X68.948 Y89.733 E17.91371
G1 X69.436 Y88.277 E17.95554
G1 X70.399 Y86.817 E18.00319
G1 X71.147 Y85.945 E18.03448
G0 F6000 X71.529 Y86.338
G1 F900 X72.782 Y85.325 E18.07837
G1 X74.356 Y84.56 E18.12604
G1 X76.167 Y84.145 E18.17666
G1 X157.854 Y84.151 E20.40181
G1 X159.055 Y84.386 E20.43515
G1 X159.956 Y84.68 E20.46097
G1 X161.258 Y85.286 E20.50009
G1 X162.634 Y86.381 E20.54799
G1 X163.731 Y87.741 E20.59558
G1 X164.495 Y89.334 E20.64371
G1 X164.905 Y91.113 E20.69344
G1 X164.899 Y143.806 E22.1288
G1 X164.65 Y145.063 E22.16371
G1 X164.4 Y145.832 E22.18573
G1 X163.764 Y147.21 E22.22708
G1 X162.671 Y148.582 E22.27486
G1 X161.309 Y149.681 E22.32253
G1 X159.716 Y150.445 E22.37066
G1 X157.937 Y150.855 E22.42039
G1 X76.262 Y150.849 E24.64522
G1 X75.331 Y150.683 E24.67098
G1 X74.059 Y150.285 E24.70728
G1 X72.827 Y149.704 E24.74439
G1 X71.472 Y148.623 E24.79161
G1 X70.369 Y147.259 E24.83939
G1 X69.605 Y145.666 E24.88752
G1 X69.195 Y143.888 E24.93722
G1 X69.194 Y124.491 E25.46559
G1 X68.575 Y124.431 E25.48254
G1 X67.498 Y124.094 E25.51328
G1 X66.499 Y123.403 E25.54636
G1 X65.727 Y122.528 E25.57815
G1 X65.248 Y121.627 E25.60595
G1 X64.637 Y119.527 E25.66552
G1 X64.537 Y118.38 E25.69688
G1 X64.657 Y117.658 E25.71682
G1 X65.23 Y115.67 E25.77318
G1 X65.623 Y114.853 E25.79788
G1 X65.972 Y114.4 E25.81345
G1 X66.147 Y113.802 E25.83043
G1 X66.75 Y112.79 E25.86252
G1 X67.487 Y112.07 E25.89058
G1 X68.312 Y111.548 E25.91718
G1 X69.2 Y111.284 E25.94241
G1 X69.196 Y109.664 E25.98654
G1 X68.245 Y109.887 E26.01315
G1 X67.813 Y109.916 E26.02494
G1 X66.825 Y109.807 E26.05202
G1 X64.538 Y109.14 E26.11691
G1 X63.362 Y108.492 E26.15349
G1 X61.264 Y106.394 E26.23431
G1 X60.622 Y105.229 E26.27054
G1 X59.931 Y102.872 E26.33745
G1 X59.83 Y101.707 E26.3693
G1 X59.98 Y100.86 E26.39274
G1 X60.618 Y98.682 E26.45456
G1 X61.209 Y97.583 E26.48855
G1 X63.164 Y95.517 E26.56603
G1 X64.334 Y94.789 E26.60357
G1 X66.846 Y94.084 E26.67464
G1 X67.92 Y93.98 E26.70403
G1 X69.026 Y94.159 E26.73455
G1 X69.2 Y94.217 E26.73954
G1 X69.201 Y91.196 E26.82184
G1 X69.466 Y89.907 E26.85768
G1 X69.932 Y88.517 E26.89762
G1 X70.814 Y87.172 E26.94143
G1 X71.529 Y86.338 E26.97136
G0 F6000 X71.908 Y86.734
G1 F900 X73.077 Y85.789 E27.0123
G1 X74.54 Y85.078 E27.05661
G1 X76.228 Y84.691 E27.10379
G1 X157.8 Y84.697 E29.32581
G1 X158.95 Y84.922 E29.35773
G1 X159.725 Y85.175 E29.37994
G1 X160.97 Y85.755 E29.41735
G1 X162.246 Y86.77 E29.46177
G1 X163.267 Y88.036 E29.50607
G1 X163.976 Y89.514 E29.55072
G1 X164.359 Y91.175 E29.59716
G1 X164.353 Y143.75 E31.0293
G1 X164.114 Y144.957 E31.06282
G1 X163.904 Y145.603 E31.08132
G1 X163.295 Y146.923 E31.12092
G1 X162.282 Y148.194 E31.16519
G1 X161.014 Y149.217 E31.20957
G1 X159.536 Y149.926 E31.25423
G1 X157.875 Y150.309 E31.30066
G1 X76.313 Y150.303 E33.52241
G1 X75.427 Y150.145 E33.54693
G1 X74.292 Y149.791 E33.57932
G1 X73.119 Y149.238 E33.61464
G1 X71.858 Y148.232 E33.65858
G1 X70.833 Y146.964 E33.703
G1 X70.124 Y145.486 E33.74765
G1 X69.741 Y143.826 E33.79406
G1 X69.74 Y123.942 E34.3357
G1 X69.519 Y123.967 E34.34176
G1 X68.738 Y123.91 E34.36309
G1 X67.741 Y123.598 E34.39154
G1 X66.865 Y122.992 E34.42056
G1 X66.178 Y122.213 E34.44885
G1 X65.756 Y121.42 E34.47332
G1 X65.177 Y119.429 E34.5298
G1 X65.087 Y118.403 E34.55786
G1 X65.196 Y117.748 E34.57595
G1 X65.741 Y115.868 E34.62927
G1 X66.115 Y115.09 E34.65278
G1 X66.465 Y114.659 E34.66791
G1 X66.651 Y114.023 E34.68596
G1 X67.182 Y113.132 E34.71421
G1 X67.831 Y112.498 E34.73893
G1 X68.539 Y112.05 E34.76175
G1 X69.322 Y111.815 E34.78402
G1 X69.842 Y111.743 E34.79832
G1 X69.741 Y111.233 E34.81248
G1 X69.742 Y108.823 E34.87813
G1 X69.254 Y109.089 E34.89327
G1 X68.194 Y109.343 E34.92296
G1 X67.873 Y109.373 E34.93174
G1 X66.93 Y109.269 E34.95758
G1 X64.749 Y108.633 E35.01947
G1 X63.693 Y108.051 E35.05231
G1 X61.705 Y106.063 E35.1289
G1 X61.129 Y105.018 E35.1614
G1 X60.47 Y102.77 E35.22521
G1 X60.38 Y101.731 E35.25362
G1 X60.504 Y101.014 E35.27344
G1 X61.126 Y98.891 E35.33371
G1 X61.656 Y97.905 E35.3642
G1 X63.511 Y95.945 E35.43771
G1 X64.557 Y95.294 E35.47127
G1 X66.952 Y94.622 E35.53903
G1 X67.901 Y94.53 E35.565
G1 X68.939 Y94.698 E35.59364
G1 X69.746 Y95.068 E35.61783
G1 X69.747 Y91.251 E35.7218
G1 X69.984 Y90.08 E35.75435
G1 X70.428 Y88.755 E35.79241
G1 X71.228 Y87.527 E35.83234
G1 X71.908 Y86.734 E35.86079
G0 F6000 X72.289 Y87.128
G1 F900 X73.372 Y86.253 E35.89872
G1 X74.724 Y85.596 E35.93967
G1 X76.289 Y85.237 E35.9834
G1 X157.746 Y85.243 E38.2023
G1 X158.845 Y85.458 E38.2328
G1 X159.495 Y85.67 E38.25142
G1 X160.681 Y86.222 E38.28706
G1 X161.858 Y87.159 E38.32804
G1 X162.803 Y88.331 E38.36905
G1 X163.457 Y89.694 E38.41023
G1 X163.813 Y91.237 E38.45337
G1 X163.807 Y143.696 E39.88235
G1 X163.594 Y144.791 E39.91274
G1 X163.408 Y145.374 E39.92941
G1 X162.827 Y146.634 E39.96721
G1 X161.891 Y147.807 E40.00808
G1 X160.719 Y148.753 E40.04911
G1 X159.356 Y149.407 E40.09029
G1 X157.813 Y149.763 E40.13343
G1 X76.364 Y149.757 E42.3521
G1 X75.523 Y149.607 E42.37537
G1 X74.525 Y149.297 E42.40384
G1 X73.411 Y148.772 E42.43739
G1 X72.244 Y147.841 E42.47805
G1 X71.297 Y146.669 E42.5191
G1 X70.643 Y145.306 E42.56028
G1 X70.287 Y143.764 E42.60339
G1 X70.286 Y123.89 E43.14476
G1 X70.413 Y123.244 E43.16269
G1 X69.559 Y123.422 E43.18645
G1 X68.838 Y123.369 E43.20615
G1 X67.984 Y123.102 E43.23052
G1 X67.228 Y122.579 E43.25556
G1 X66.63 Y121.901 E43.28019
G1 X66.265 Y121.214 E43.30138
G1 X65.716 Y119.329 E43.35486
G1 X65.637 Y118.426 E43.37955
G1 X65.735 Y117.838 E43.39579
G1 X66.252 Y116.065 E43.4461
G1 X66.607 Y115.327 E43.4684
G1 X66.956 Y114.927 E43.48286
G1 X67.155 Y114.244 E43.50224
G1 X67.614 Y113.474 E43.52666
G1 X68.175 Y112.926 E43.54802
G1 X68.766 Y112.552 E43.56708
G1 X69.479 Y112.338 E43.58735
G1 X70.009 Y112.273 E43.6019
G1 X70.589 Y112.344 E43.61782
G1 X70.486 Y112.122 E43.62448
G1 X70.287 Y111.233 E43.6493
G1 X70.288 Y107.661 E43.7466
G1 X69.891 Y108.069 E43.76211
G1 X69.249 Y108.495 E43.7831
G1 X69.074 Y108.571 E43.78829
G1 X68.067 Y108.812 E43.8165
G1 X67.88 Y108.824 E43.8216
G1 X67.035 Y108.731 E43.84476
G1 X64.958 Y108.125 E43.9037
G1 X64.025 Y107.611 E43.93271
G1 X62.146 Y105.732 E44.0051
G1 X61.636 Y104.807 E44.03387
G1 X61.009 Y102.668 E44.09459
G1 X60.93 Y101.752 E44.11963
G1 X61.028 Y101.167 E44.13579
G1 X61.633 Y99.101 E44.19443
G1 X62.103 Y98.227 E44.22146
G1 X63.86 Y96.371 E44.29108
G1 X64.777 Y95.8 E44.32051
G1 X67.058 Y95.16 E44.38504
G1 X67.882 Y95.08 E44.40759
G1 X68.779 Y95.225 E44.43235
G1 X69.699 Y95.647 E44.45992
G1 X70.292 Y96.227 E44.48251
G1 X70.293 Y91.304 E44.61661
G1 X70.502 Y90.254 E44.64578
G1 X70.924 Y88.995 E44.68195
G1 X71.686 Y87.825 E44.71998
G1 X72.289 Y87.128 E44.74509
G0 F6000 X72.668 Y87.524
G1 F900 X73.667 Y86.717 E44.78007
G1 X74.908 Y86.114 E44.81765
G1 X76.35 Y85.783 E44.85796
G1 X157.694 Y85.789 E47.07377
G1 X158.679 Y85.978 E47.10109
G1 X159.264 Y86.165 E47.11782
G1 X160.393 Y86.691 E47.15175
G1 X161.47 Y87.548 E47.18924
G1 X162.339 Y88.626 E47.22696
G1 X162.938 Y89.874 E47.26467
G1 X163.267 Y91.299 E47.30451
G1 X163.261 Y143.644 E48.73039
G1 X163.072 Y144.629 E48.75771
G1 X162.912 Y145.145 E48.77242
G1 X162.358 Y146.347 E48.80848
G1 X161.503 Y147.419 E48.84583
G1 X160.424 Y148.289 E48.88358
G1 X159.176 Y148.888 E48.92129
G1 X157.751 Y149.217 E48.96113
G1 X76.415 Y149.211 E51.17673
G1 X75.619 Y149.069 E51.19875
G1 X74.758 Y148.803 E51.2233
G1 X73.703 Y148.306 E51.25507
G1 X72.63 Y147.45 E51.29246
G1 X71.761 Y146.374 E51.33013
G1 X71.162 Y145.126 E51.36784
G1 X70.833 Y143.702 E51.40765
G1 X70.832 Y123.945 E51.94584
G1 X70.986 Y123.166 E51.96747
G1 X71.41 Y122.38 E51.99179
G1 X71.906 Y121.946 E52.00975
G1 X72.546 Y121.604 E52.02951
G1 X73.267 Y121.443 E52.04964
G1 X75.893 Y121.443 E52.12117
G1 X75.893 Y113.607 E52.33462
G1 X73.39 Y113.607 E52.4028
G1 X72.772 Y113.523 E52.41979
G1 X72.229 Y113.305 E52.43573
G1 X71.795 Y113.023 E52.44983
G1 X71.447 Y112.682 E52.4631
G1 X71.019 Y112.003 E52.48497
G1 X70.833 Y111.172 E52.50816
G1 X70.839 Y91.358 E53.0479
G1 X71.02 Y90.428 E53.07371
G1 X71.42 Y89.235 E53.10798
G1 X72.144 Y88.123 E53.14413
G1 X72.668 Y87.524 E53.16581
G0 F6000 X73.045 Y87.922
G1 F900 X73.962 Y87.181 E53.19792
G1 X75.092 Y86.632 E53.23214
G1 X76.411 Y86.329 E53.26901
G1 X157.64 Y86.335 E55.48169
G1 X158.517 Y86.5 E55.506
G1 X159.033 Y86.66 E55.52072
G1 X160.105 Y87.16 E55.55294
G1 X161.082 Y87.937 E55.58694
G1 X161.875 Y88.921 E55.62137
G1 X162.419 Y90.054 E55.6556
G1 X162.721 Y91.361 E55.69214
G1 X162.715 Y143.59 E57.11486
G1 X162.55 Y144.467 E57.13917
G1 X162.39 Y144.983 E57.15389
G1 X161.891 Y146.056 E57.18612
G1 X161.112 Y147.032 E57.22014
G1 X160.129 Y147.825 E57.25454
G1 X158.996 Y148.369 E57.28878
G1 X157.689 Y148.671 E57.32532
G1 X76.466 Y148.665 E59.53784
G1 X75.715 Y148.531 E59.55862
G1 X74.922 Y148.282 E59.58126
G1 X73.992 Y147.839 E59.60932
G1 X73.018 Y147.062 E59.64326
G1 X72.225 Y146.079 E59.67767
G1 X71.681 Y144.946 E59.7119
G1 X71.379 Y143.64 E59.74842
G1 X71.378 Y124 E60.28341
G1 X71.506 Y123.351 E60.30143
G1 X71.844 Y122.726 E60.32078
G1 X72.163 Y122.428 E60.33268
G1 X72.738 Y122.121 E60.35043
G1 X73.328 Y121.989 E60.3669
G1 X76.439 Y121.989 E60.45164
G1 X76.439 Y113.061 E60.69484
G1 X73.39 Y113.061 E60.7779
G1 X72.915 Y112.992 E60.79097
G1 X72.519 Y112.842 E60.80251
G1 X72.16 Y112.617 E60.81405
G1 X71.909 Y112.391 E60.82325
G1 X71.531 Y111.792 E60.84254
G1 X71.379 Y111.111 E60.86155
G1 X71.385 Y91.413 E61.39813
G1 X71.538 Y90.602 E61.42061
G1 X71.916 Y89.475 E61.45299
G1 X72.602 Y88.421 E61.48724
G1 X73.045 Y87.922 E61.50542
G0 F6000 X73.422 Y88.32
G1 F900 X74.257 Y87.645 E61.53467
G1 X75.276 Y87.15 E61.56553
G1 X76.472 Y86.875 E61.59896
G1 X157.589 Y86.881 E63.80859
G1 X158.355 Y87.022 E63.8298
G1 X158.871 Y87.182 E63.84452
G1 X159.817 Y87.628 E63.87301
G1 X160.694 Y88.326 E63.90354
G1 X161.411 Y89.216 E63.93467
G1 X161.9 Y90.234 E63.96544
G1 X162.175 Y91.423 E63.99868
G1 X162.169 Y143.539 E65.41832
G1 X162.028 Y144.305 E65.43954
G1 X161.868 Y144.821 E65.45426
G1 X161.424 Y145.766 E65.4827
G1 X160.724 Y146.644 E65.51329
G1 X159.834 Y147.361 E65.54442
G1 X158.816 Y147.85 E65.57518
G1 X157.627 Y148.125 E65.60843
G1 X76.517 Y148.119 E67.81787
G1 X75.811 Y147.993 E67.8374
G1 X75.157 Y147.789 E67.85606
G1 X74.282 Y147.372 E67.88247
G1 X73.406 Y146.674 E67.91298
G1 X72.689 Y145.784 E67.94411
G1 X72.2 Y144.766 E67.97487
G1 X71.925 Y143.578 E68.00809
G1 X71.924 Y124 E68.5414
G1 X71.986 Y123.611 E68.55213
G1 X72.283 Y123.062 E68.56913
G1 X72.44 Y122.899 E68.57529
G1 X72.857 Y122.654 E68.58847
G1 X73.389 Y122.535 E68.60332
G1 X76.985 Y122.535 E68.70127
G1 X76.985 Y112.515 E68.97422
G1 X73.39 Y112.515 E69.07215
G1 X73.001 Y112.453 E69.08288
G1 X72.809 Y112.379 E69.08848
G1 X72.45 Y112.154 E69.10002
G1 X72.288 Y111.998 E69.10615
G1 X72.044 Y111.582 E69.11929
G1 X71.925 Y111.05 E69.13414
G1 X71.931 Y91.466 E69.66761
G1 X72.075 Y90.703 E69.68876
G1 X72.411 Y89.716 E69.71716
G1 X73.06 Y88.719 E69.74956
G1 X73.422 Y88.32 E69.76424
G1 F2400 E66.76424
G0 F6000 X74.148 Y89.137
G1 F2400 E69.76424
G1 F900 X74.845 Y88.573 E69.78866
G1 X75.641 Y88.187 E69.81276
G1 X76.595 Y87.967 E69.83943
G1 X157.488 Y87.973 E72.04296
G1 X158.038 Y88.068 E72.05816
G1 X158.474 Y88.197 E72.07055
G1 X159.238 Y88.562 E72.09361
G1 X159.922 Y89.106 E72.11742
G1 X160.479 Y89.798 E72.14162
G1 X160.864 Y90.598 E72.1658
G1 X161.083 Y91.547 E72.19233
G1 X161.077 Y143.438 E73.60584
G1 X160.982 Y143.988 E73.62105
G1 X160.853 Y144.424 E73.63343
G1 X160.489 Y145.187 E73.65646
G1 X159.944 Y145.872 E73.68031
G1 X159.252 Y146.429 E73.7045
