;FLAVOR:Marlin
;TIME:11689
;Filament used: 5.10772m
;Layer height: 0.1
;MINX:46.426
;MINY:100.176
;MINZ:0.12
;MAXX:188.574
;MAXY:134.828
;MAXZ:22.02
;TARGET_MACHINE.NAME:ELEGOO NEPTUNE 3 Pro
;Generated with Cura_SteamEngine 5.5.0
M140 S70
M105
M190 S70
M104 S210
M105
M109 S210
M82 ;absolute extrusion mode
;ELEGOO NEPTUNE 3 Pro
M220 S100 ;Set the feed speed to 100%
M221 S100 ;Set the flow rate to 100%
G90
G28 ;home
;M420 S1 Z10;Uncomment to enable progressive compensation height of 10mm
G92 E0 ;Reset Extruder
G1 Z0.45 F300
G1 X1.5 Y20 F5000.0 ;Move to start position
G1 Y120.0 F600.0 E15 ;Draw the first line
G1 X0.5 F1000.0 ;Move to side a little
G1 Y20 F600 E30 ;Draw the second line
G92 E0 ;Reset Extruder
G92 E0
G92 E0
G1 F2400 E-3
;LAYER_COUNT:220
;LAYER:0
M107
M204 S500
G0 F6000 X49.169 Y101.038 Z0.12
;TYPE:SKIRT
G1 F2400 E0
G1 F900 X50.685 Y100.387 E0.04494
G1 X51.917 Y100.177 E0.07899
G1 X183.58 Y100.176 E3.66549
G1 X185.028 Y100.643 E3.70694
G1 X185.802 Y101.017 E3.73035
G1 X186.804 Y101.813 E3.76521
G1 X187.711 Y102.917 E3.80413
G1 X188.363 Y104.435 E3.84914
G1 X188.573 Y105.667 E3.88318
G1 X188.574 Y129.495 E4.53226
G1 X188.381 Y130.602 E4.56287
G1 X187.799 Y131.973 E4.60344
G1 X186.93 Y133.06 E4.64135
G1 X185.831 Y133.962 E4.68008
G1 X184.315 Y134.613 E4.72502
G1 X183.083 Y134.823 E4.75906
G1 X176.037 Y134.822 E4.95099
G1 X174.213 Y134.523 E5.00134
G1 X172.376 Y133.593 E5.05743
G1 X170.92 Y132.34 E5.10976
G1 X170.116 Y131.122 E5.14951
G1 X169.956 Y130.978 E5.15538
G1 X169.706 Y130.865 E5.16285
G1 X169.354 Y130.828 E5.17249
G1 X65.478 Y130.829 E8.00208
G1 X65.239 Y130.88 E8.00873
G1 X64.994 Y131.019 E8.01641
G1 X64.839 Y131.189 E8.02267
G1 X64.287 Y132.043 E8.05037
G1 X62.951 Y133.384 E8.10194
G1 X61.431 Y134.242 E8.14948
G1 X60.013 Y134.696 E8.19004
G1 X58.641 Y134.828 E8.22759
G1 X51.755 Y134.824 E8.41516
G1 X50.648 Y134.631 E8.44577
G1 X49.277 Y134.049 E8.48634
G1 X48.19 Y133.18 E8.52425
G1 X47.288 Y132.081 E8.56298
G1 X46.637 Y130.565 E8.60792
G1 X46.427 Y129.333 E8.64197
G1 X46.426 Y105.505 E9.29104
G1 X46.619 Y104.398 E9.32165
G1 X47.201 Y103.027 E9.36223
G1 X48.07 Y101.94 E9.40013
G1 X49.169 Y101.038 E9.43886
G0 F6000 X49.454 Y101.51
G1 F900 X50.842 Y100.914 E9.48001
G1 X51.962 Y100.723 E9.51096
G1 X183.493 Y100.722 E13.09387
G1 X184.86 Y101.163 E13.133
G1 X185.508 Y101.481 E13.15266
G1 X186.422 Y102.207 E13.18446
G1 X187.239 Y103.202 E13.21953
G1 X187.836 Y104.592 E13.26073
G1 X188.027 Y105.712 E13.29168
G1 X188.028 Y129.447 E13.93823
G1 X187.854 Y130.446 E13.96585
G1 X187.325 Y131.692 E14.00272
G1 X186.54 Y132.674 E14.03697
G1 X185.546 Y133.49 E14.072
G1 X184.158 Y134.086 E14.11315
G1 X183.038 Y134.277 E14.1441
G1 X176.082 Y134.276 E14.33358
G1 X174.383 Y133.997 E14.38048
G1 X172.683 Y133.137 E14.43238
G1 X171.335 Y131.977 E14.48082
G1 X170.535 Y130.765 E14.52038
G1 X170.28 Y130.535 E14.52973
G1 X170.056 Y130.405 E14.53679
G1 X169.819 Y130.328 E14.54358
G1 X169.383 Y130.282 E14.55552
G1 X65.419 Y130.283 E17.3875
G1 X65.07 Y130.358 E17.39723
G1 X64.825 Y130.466 E17.40452
G1 X64.628 Y130.609 E17.41115
G1 X64.405 Y130.856 E17.42022
G1 X63.86 Y131.698 E17.44754
G1 X62.618 Y132.945 E17.49548
G1 X61.211 Y133.739 E17.53949
G1 X59.9 Y134.159 E17.57699
G1 X58.641 Y134.282 E17.61145
G1 X51.803 Y134.278 E17.79771
G1 X50.804 Y134.104 E17.82534
G1 X49.558 Y133.575 E17.86221
G1 X48.576 Y132.79 E17.89646
G1 X47.76 Y131.796 E17.93149
G1 X47.164 Y130.408 E17.97263
G1 X46.973 Y129.288 E18.00358
G1 X46.972 Y105.553 E18.65013
G1 X47.146 Y104.554 E18.67775
G1 X47.675 Y103.308 E18.71462
G1 X48.46 Y102.326 E18.74887
G1 X49.454 Y101.51 E18.7839
G0 F6000 X49.739 Y101.982
G1 F900 X50.999 Y101.441 E18.82125
G1 X52.007 Y101.269 E18.84911
G1 X183.406 Y101.268 E22.42842
G1 X184.692 Y101.683 E22.46523
G1 X185.216 Y101.947 E22.48122
G1 X186.038 Y102.599 E22.5098
G1 X186.767 Y103.487 E22.54109
G1 X187.309 Y104.749 E22.5785
G1 X187.481 Y105.757 E22.60636
G1 X187.482 Y129.399 E23.25037
G1 X187.327 Y130.29 E23.275
G1 X186.851 Y131.411 E23.30818
G1 X186.15 Y132.288 E23.33876
G1 X185.261 Y133.018 E23.3701
G1 X184.001 Y133.559 E23.40745
G1 X182.993 Y133.731 E23.4353
G1 X176.127 Y133.73 E23.62233
G1 X174.554 Y133.472 E23.66576
G1 X172.989 Y132.68 E23.71353
G1 X171.75 Y131.614 E23.75806
G1 X170.954 Y130.408 E23.79742
G1 X170.602 Y130.09 E23.81034
G1 X170.28 Y129.904 E23.82047
G1 X169.934 Y129.791 E23.83039
G1 X169.411 Y129.736 E23.84471
G1 X65.361 Y129.737 E26.67904
G1 X64.902 Y129.835 E26.69182
G1 X64.549 Y129.991 E26.70234
G1 X64.261 Y130.2 E26.71203
G1 X63.971 Y130.523 E26.72385
G1 X63.433 Y131.353 E26.7508
G1 X62.283 Y132.508 E26.7952
G1 X60.995 Y133.235 E26.83548
G1 X59.787 Y133.622 E26.87004
G1 X58.641 Y133.736 E26.90141
G1 X51.851 Y133.732 E27.08637
G1 X50.96 Y133.577 E27.111
G1 X49.839 Y133.101 E27.14418
G1 X48.962 Y132.4 E27.17476
G1 X48.232 Y131.511 E27.2061
G1 X47.691 Y130.251 E27.24345
G1 X47.519 Y129.243 E27.2713
G1 X47.518 Y105.601 E27.91531
G1 X47.673 Y104.71 E27.93995
G1 X48.149 Y103.589 E27.97312
G1 X48.85 Y102.712 E28.00371
G1 X49.739 Y101.982 E28.03504
G0 F6000 X50.024 Y102.454
G1 F900 X51.156 Y101.968 E28.0686
G1 X52.052 Y101.815 E28.09336
G1 X183.322 Y101.814 E31.66916
G1 X184.446 Y102.171 E31.70129
G1 X184.922 Y102.411 E31.71581
G1 X185.654 Y102.991 E31.74125
G1 X186.295 Y103.772 E31.76877
G1 X186.782 Y104.906 E31.80239
G1 X186.935 Y105.802 E31.82715
G1 X186.936 Y129.352 E32.46865
G1 X186.8 Y130.136 E32.49033
G1 X186.379 Y131.126 E32.51963
G1 X185.757 Y131.905 E32.54679
G1 X184.976 Y132.546 E32.57431
G1 X183.844 Y133.032 E32.60787
G1 X182.948 Y133.185 E32.63263
G1 X176.172 Y133.184 E32.8172
G1 X174.725 Y132.947 E32.85715
G1 X173.295 Y132.223 E32.90081
G1 X172.165 Y131.251 E32.94141
G1 X171.373 Y130.051 E32.98058
G1 X170.925 Y129.647 E32.99701
G1 X170.502 Y129.402 E33.01032
G1 X170.049 Y129.254 E33.02331
G1 X169.439 Y129.19 E33.04001
G1 X65.303 Y129.191 E35.87668
G1 X64.734 Y129.312 E35.89253
G1 X64.276 Y129.515 E35.90618
G1 X63.892 Y129.793 E35.91909
G1 X63.537 Y130.189 E35.93358
G1 X63.006 Y131.008 E35.96016
G1 X61.95 Y132.069 E36.00094
G1 X60.775 Y132.732 E36.03769
G1 X59.674 Y133.085 E36.06919
G1 X58.641 Y133.19 E36.09747
G1 X51.898 Y133.186 E36.28115
G1 X51.114 Y133.05 E36.30283
G1 X50.124 Y132.629 E36.33213
G1 X49.345 Y132.007 E36.35929
G1 X48.704 Y131.226 E36.38681
G1 X48.218 Y130.094 E36.42037
G1 X48.065 Y129.198 E36.44513
G1 X48.064 Y105.648 E37.08663
G1 X48.2 Y104.864 E37.1083
G1 X48.621 Y103.874 E37.13761
G1 X49.243 Y103.095 E37.16476
G1 X50.024 Y102.454 E37.19229
G0 F6000 X50.309 Y102.926
G1 F900 X51.313 Y102.495 E37.22205
G1 X52.097 Y102.361 E37.24371
G1 X183.239 Y102.36 E40.81603
G1 X184.281 Y102.691 E40.84581
G1 X184.583 Y102.839 E40.85497
G1 X185.268 Y103.382 E40.87878
G1 X185.824 Y104.059 E40.90265
G1 X186.255 Y105.063 E40.93241
G1 X186.389 Y105.847 E40.95408
G1 X186.39 Y129.304 E41.59305
G1 X186.272 Y129.982 E41.61179
G1 X185.906 Y130.843 E41.63728
G1 X185.366 Y131.52 E41.66087
G1 X184.691 Y132.074 E41.68465
G1 X183.687 Y132.505 E41.71442
G1 X182.903 Y132.639 E41.73608
G1 X176.217 Y132.638 E41.91821
G1 X174.895 Y132.421 E41.9547
G1 X173.602 Y131.767 E41.99417
G1 X172.58 Y130.888 E42.03089
G1 X171.792 Y129.694 E42.06986
G1 X171.247 Y129.202 E42.08986
G1 X170.726 Y128.901 E42.10625
G1 X170.164 Y128.717 E42.12236
G1 X169.467 Y128.644 E42.14145
G1 X65.245 Y128.645 E44.98046
G1 X64.564 Y128.79 E44.99943
G1 X64.001 Y129.04 E45.01621
G1 X63.526 Y129.383 E45.03217
G1 X63.103 Y129.855 E45.04943
G1 X62.579 Y130.663 E45.07567
G1 X61.615 Y131.632 E45.1129
G1 X60.559 Y132.228 E45.14593
G1 X59.561 Y132.548 E45.17448
G1 X58.641 Y132.644 E45.19968
G1 X51.946 Y132.64 E45.38205
G1 X51.268 Y132.522 E45.4008
G1 X50.407 Y132.156 E45.42628
G1 X49.73 Y131.616 E45.44987
G1 X49.176 Y130.941 E45.47366
G1 X48.745 Y129.937 E45.50342
G1 X48.611 Y129.153 E45.52508
G1 X48.61 Y105.696 E46.16405
G1 X48.728 Y105.018 E46.1828
G1 X49.094 Y104.157 E46.20829
G1 X49.634 Y103.48 E46.23188
G1 X50.309 Y102.926 E46.25566
G0 F6000 X50.594 Y103.398
G1 F900 X51.47 Y103.022 E46.28163
G1 X52.142 Y102.907 E46.3002
G1 X183.156 Y102.906 E49.86903
G1 X184.116 Y103.211 E49.89647
G1 X184.29 Y103.303 E49.90183
G1 X184.884 Y103.774 E49.92248
G1 X185.352 Y104.344 E49.94257
G1 X185.728 Y105.22 E49.96854
G1 X185.843 Y105.892 E49.98711
G1 X185.844 Y129.256 E50.62354
G1 X185.745 Y129.824 E50.63925
G1 X185.431 Y130.563 E50.66112
G1 X184.975 Y131.135 E50.68105
G1 X184.406 Y131.602 E50.7011
G1 X183.53 Y131.978 E50.72707
G1 X182.858 Y132.093 E50.74564
G1 X176.262 Y132.092 E50.92531
G1 X175.066 Y131.896 E50.95833
G1 X173.908 Y131.31 E50.99368
G1 X172.995 Y130.525 E51.02648
G1 X172.211 Y129.336 E51.06528
G1 X171.567 Y128.756 E51.08888
G1 X170.952 Y128.4 E51.10824
G1 X170.279 Y128.18 E51.12753
G1 X169.495 Y128.098 E51.149
G1 X65.189 Y128.099 E53.9903
G1 X64.393 Y128.268 E54.01247
G1 X63.729 Y128.563 E54.03226
G1 X63.158 Y128.976 E54.05146
G1 X62.668 Y129.522 E54.07144
G1 X62.152 Y130.318 E54.09728
G1 X61.28 Y131.195 E54.13097
G1 X60.343 Y131.724 E54.16028
G1 X59.448 Y132.011 E54.18588
G1 X58.641 Y132.098 E54.20799
G1 X51.994 Y132.094 E54.38906
G1 X51.426 Y131.995 E54.40476
G1 X50.687 Y131.681 E54.42664
G1 X50.115 Y131.225 E54.44656
G1 X49.648 Y130.656 E54.46661
G1 X49.272 Y129.78 E54.49258
G1 X49.157 Y129.108 E54.51115
G1 X49.156 Y105.744 E55.14759
G1 X49.255 Y105.176 E55.1633
G1 X49.569 Y104.437 E55.18517
G1 X50.025 Y103.865 E55.20509
G1 X50.594 Y103.398 E55.22515
G0 F6000 X50.879 Y103.87
G1 F900 X51.627 Y103.549 E55.24732
G1 X52.187 Y103.453 E55.2628
G1 X183.073 Y103.452 E58.82814
G1 X183.951 Y103.731 E58.85323
G1 X184.5 Y104.166 E58.87231
G1 X184.88 Y104.629 E58.88863
G1 X185.201 Y105.377 E58.9108
G1 X185.297 Y105.937 E58.92628
G1 X185.298 Y129.256 E59.56149
G1 X185.242 Y129.611 E59.57128
G1 X184.957 Y130.282 E59.59114
G1 X184.584 Y130.75 E59.60744
G1 X184.121 Y131.13 E59.62375
G1 X183.373 Y131.451 E59.64593
G1 X182.813 Y131.547 E59.6614
G1 X176.307 Y131.546 E59.83863
G1 X175.237 Y131.371 E59.86816
G1 X174.214 Y130.853 E59.8994
G1 X173.408 Y130.16 E59.92835
G1 X172.771 Y129.193 E59.9599
G1 X172.516 Y128.875 E59.971
G1 X171.889 Y128.311 E59.99397
G1 X171.177 Y127.899 E60.01638
G1 X170.393 Y127.643 E60.03885
G1 X169.523 Y127.552 E60.06267
G1 X65.133 Y127.553 E62.90626
G1 X64.222 Y127.746 E62.93163
G1 X63.457 Y128.086 E62.95443
G1 X62.789 Y128.569 E62.97689
G1 X62.234 Y129.189 E62.99955
G1 X61.725 Y129.973 E63.02502
G1 X60.947 Y130.756 E63.05508
G1 X60.123 Y131.221 E63.08086
G1 X59.335 Y131.474 E63.1034
G1 X58.641 Y131.552 E63.12243
G1 X51.994 Y131.548 E63.30349
G1 X51.639 Y131.492 E63.31328
G1 X50.968 Y131.207 E63.33314
G1 X50.5 Y130.834 E63.34944
G1 X50.12 Y130.371 E63.36576
G1 X49.799 Y129.623 E63.38793
G1 X49.703 Y129.063 E63.40341
G1 X49.702 Y105.744 E64.03862
G1 X49.758 Y105.389 E64.04841
G1 X50.043 Y104.718 E64.06826
G1 X50.416 Y104.25 E64.08457
G1 X50.879 Y103.87 E64.10088
G0 F6000 X51.166 Y104.341
G1 F900 X51.842 Y104.051 E64.12092
G1 X52.187 Y103.999 E64.13042
G1 X182.989 Y103.998 E67.69348
G1 X183.689 Y104.221 E67.71349
G1 X184.078 Y104.513 E67.72674
G1 X184.409 Y104.916 E67.74094
G1 X184.699 Y105.592 E67.76098
G1 X184.751 Y105.937 E67.77049
G1 X184.752 Y129.256 E68.4057
G1 X184.714 Y129.456 E68.41124
G1 X184.483 Y130 E68.42734
G1 X184.237 Y130.328 E68.43851
G1 X183.834 Y130.659 E68.45272
G1 X183.158 Y130.949 E68.47275
G1 X182.813 Y131.001 E68.48226
G1 X176.352 Y131 E68.65826
G1 X175.408 Y130.846 E68.68431
G1 X174.52 Y130.396 E68.71143
G1 X173.821 Y129.795 E68.73654
G1 X173.215 Y128.875 E68.76655
G1 X172.913 Y128.498 E68.77971
G1 X172.211 Y127.866 E68.80544
G1 X171.401 Y127.398 E68.83092
G1 X170.508 Y127.106 E68.85651
G1 X169.551 Y127.006 E68.88272
G1 X65.464 Y127.007 E71.71806
G1 X64.948 Y127.034 E71.73213
G1 X64.051 Y127.224 E71.75711
G1 X63.182 Y127.611 E71.78302
G1 X62.423 Y128.159 E71.80852
G1 X61.8 Y128.855 E71.83397
G1 X61.298 Y129.628 E71.85907
G1 X60.612 Y130.319 E71.8856
G1 X59.907 Y130.717 E71.90765
G1 X59.218 Y130.938 E71.92736
G1 X58.641 Y131.006 E71.94319
G1 X51.994 Y131.002 E72.12425
G1 X51.794 Y130.964 E72.1298
G1 X51.25 Y130.733 E72.1459
G1 X50.922 Y130.487 E72.15707
G1 X50.591 Y130.084 E72.17127
G1 X50.301 Y129.408 E72.19131
G1 X50.249 Y129.063 E72.20081
G1 X50.248 Y105.744 E72.83602
G1 X50.286 Y105.544 E72.84157
G1 X50.517 Y105 E72.85767
G1 X50.763 Y104.672 E72.86884
G1 X51.166 Y104.341 E72.88304
G1 F2400 E69.88304
G0 F6000 X51.73 Y105.263
G1 F2400 E72.88304
G1 F900 X52.187 Y105.091 E72.89634
G1 X182.905 Y105.09 E76.45711
G1 X183.12 Y105.159 E76.46326
G1 X183.363 Y105.331 E76.47137
G1 X183.487 Y105.48 E76.47665
G1 X183.659 Y105.937 E76.48995
G1 X183.66 Y129.155 E77.12241
G1 X183.591 Y129.37 E77.12856
G1 X183.419 Y129.613 E77.13667
G1 X183.27 Y129.737 E77.14195
G1 X182.813 Y129.909 E77.15525
G1 X176.441 Y129.908 E77.32883
G1 X175.751 Y129.796 E77.34787
G1 X175.132 Y129.482 E77.36677
G1 X174.647 Y129.065 E77.3842
G1 X174.091 Y128.221 E77.41173
G1 X173.73 Y127.769 E77.42749
G1 X173.295 Y127.337 E77.44419
G1 X172.857 Y126.984 E77.45951
G1 X172.359 Y126.661 E77.47568
G1 X171.851 Y126.402 E77.49121
G1 X171.293 Y126.186 E77.50751
G1 X170.732 Y126.036 E77.52333
G1 X170.155 Y125.945 E77.53924
G1 X169.571 Y125.914 E77.55517
G1 X65.447 Y125.915 E80.39151
G1 X64.836 Y125.946 E80.40818
G1 X64.268 Y126.036 E80.42385
G1 X63.707 Y126.186 E80.43966
G1 X63.149 Y126.402 E80.45596
G1 X62.639 Y126.662 E80.47156
G1 X62.143 Y126.983 E80.48765
G1 X61.697 Y127.341 E80.50323
G1 X61.274 Y127.766 E80.51956
G1 X60.909 Y128.221 E80.53545
G1 X60.442 Y128.939 E80.55878
G1 X59.943 Y129.442 E80.57808
G1 X59.466 Y129.711 E80.593
G1 X58.984 Y129.866 E80.60679
G1 X58.641 Y129.914 E80.61623
G1 X52.095 Y129.91 E80.79454
G1 X51.88 Y129.841 E80.80069
G1 X51.637 Y129.669 E80.8088
G1 X51.513 Y129.52 E80.81408
G1 X51.341 Y129.063 E80.82738
G1 X51.34 Y105.845 E81.45984
G1 X51.409 Y105.63 E81.46599
G1 X51.581 Y105.387 E81.4741
G1 X51.73 Y105.263 E81.47938
G0 F6000 X51.381 Y104.843
G1 F900 X51.995 Y104.58 E81.49758
G1 X52.187 Y104.545 E81.50289
G1 X182.905 Y104.544 E85.06366
G1 X183.435 Y104.713 E85.07881
G1 X183.678 Y104.885 E85.08692
G1 X183.907 Y105.131 E85.09608
G1 X184.17 Y105.745 E85.11427
G1 X184.205 Y105.937 E85.11959
G1 X184.206 Y129.256 E85.7548
G1 X184.037 Y129.685 E85.76736
G1 X183.865 Y129.928 E85.77547
G1 X183.619 Y130.157 E85.78462
G1 X183.005 Y130.42 E85.80282
G1 X182.813 Y130.455 E85.80814
G1 X176.397 Y130.454 E85.98291
G1 X175.579 Y130.321 E86.00548
G1 X174.826 Y129.939 E86.02848
G1 X174.234 Y129.43 E86.04975
G1 X173.653 Y128.548 E86.07852
G1 X173.32 Y128.131 E86.09306
G1 X172.932 Y127.746 E86.10795
G1 X172.534 Y127.425 E86.12188
G1 X172.084 Y127.133 E86.13649
G1 X171.63 Y126.902 E86.15036
G1 X171.121 Y126.705 E86.16523
G1 X170.62 Y126.571 E86.17936
G1 X170.099 Y126.489 E86.19372
G1 X169.561 Y126.46 E86.2084
G1 X65.455 Y126.461 E89.04425
G1 X64.892 Y126.49 E89.05961
G1 X64.38 Y126.571 E89.07373
G1 X63.879 Y126.705 E89.08786
G1 X63.37 Y126.902 E89.10273
G1 X62.914 Y127.134 E89.11666
G1 X62.466 Y127.424 E89.1312
G1 X62.06 Y127.75 E89.14538
G1 X61.684 Y128.128 E89.15991
G1 X61.353 Y128.541 E89.17432
G1 X60.869 Y129.285 E89.1985
G1 X60.279 Y129.88 E89.22133
G1 X59.687 Y130.214 E89.23984
G1 X59.102 Y130.402 E89.25658
G1 X58.641 Y130.46 E89.26924
G1 X51.994 Y130.456 E89.4503
G1 X51.565 Y130.287 E89.46286
G1 X51.322 Y130.115 E89.47097
G1 X51.093 Y129.869 E89.48013
G1 X50.83 Y129.255 E89.49832
G1 X50.795 Y129.063 E89.50364
G1 X50.794 Y105.744 E90.13885
G1 X50.963 Y105.315 E90.15141
G1 X51.135 Y105.072 E90.15952
G1 X51.381 Y104.843 E90.16867
G1 F2400 E87.16867
;MESH:Bottom v9 Stereo Webcam Fixture.stl
G0 F6000 X52.167 Y105.945
G0 X53.078 Y106.829
;TYPE:WALL-INNER
G1 F2400 E90.16867
G1 F900 X53.079 Y128.172 E90.75006
G1 X58.539 Y128.176 E90.89879
G1 X58.87 Y128.054 E90.9084
G1 X59.082 Y127.839 E90.91662
G1 X59.464 Y127.251 E90.93572
G1 X59.984 Y126.595 E90.95853
G1 X60.579 Y126.012 E90.98122
G1 X61.189 Y125.528 E91.00243
G1 X61.702 Y125.195 E91.01909
G1 X62.384 Y124.84 E91.04003
G1 X63.158 Y124.533 E91.06271
G1 X63.89 Y124.338 E91.08335
