;FLAVOR:Marlin
;TIME:21331
;Filament used: 9.26185m
;Layer height: 0.1
;MINX:68.558
;MINY:82.679
;MINZ:0.12
;MAXX:166.447
;MAXY:151.569
;MAXZ:17.32
;TARGET_MACHINE.NAME:ELEGOO NEPTUNE 3 Pro
;Generated with Cura_SteamEngine 5.5.0
M140 S70
M105
M190 S70
M104 S210
M105
M109 S210
M82 ;absolute extrusion mode
;ELEGOO NEPTUNE 3 Pro
M220 S100 ;Set the feed speed to 100%
M221 S100 ;Set the flow rate to 100%
G90
G28 ;home
;M420 S1 Z10;Uncomment to enable progressive compensation height of 10mm
G92 E0 ;Reset Extruder
G1 Z0.45 F300
G1 X1.5 Y20 F5000.0 ;Move to start position
G1 Y120.0 F600.0 E15 ;Draw the first line
G1 X0.5 F1000.0 ;Move to side a little
G1 Y20 F600 E30 ;Draw the second line
G92 E0 ;Reset Extruder
G92 E0
G92 E0
G1 F2400 E-3
;LAYER_COUNT:173
;LAYER:0
M107
M204 S500
G0 F6000 X71.114 Y85.251 Z0.12
;TYPE:SKIRT
G1 F2400 E0
G1 F900 X72.507 Y84.132 E0.04867
G1 X73.68 Y83.476 E0.08528
G1 X75.424 Y82.862 E0.13565
G1 X77.344 Y82.679 E0.18818
G1 X158.362 Y82.683 E2.39512
G1 X159.656 Y82.918 E2.43094
G1 X161.266 Y83.457 E2.47719
G1 X162.451 Y84.108 E2.51402
G1 X163.849 Y85.216 E2.56261
G1 X165.111 Y86.78 E2.61736
G1 X165.983 Y88.598 E2.67228
G1 X166.447 Y90.613 E2.72861
G1 X166.441 Y143.542 E4.1704
G1 X166.172 Y144.899 E4.20808
G1 X165.842 Y145.914 E4.23715
G1 X165.152 Y147.408 E4.28198
G1 X163.897 Y148.982 E4.33682
G1 X162.503 Y150.108 E4.38563
G1 X161.284 Y150.785 E4.42361
G1 X159.562 Y151.392 E4.47335
G1 X157.64 Y151.569 E4.52593
G1 X76.576 Y151.565 E6.73411
G1 X74.963 Y151.218 E6.77906
G1 X73.596 Y150.751 E6.81841
G1 X71.867 Y149.673 E6.87391
G1 X70.469 Y148.277 E6.92773
G1 X69.398 Y146.58 E6.98239
G1 X68.789 Y144.82 E7.03312
G1 X68.558 Y143.485 E7.07003
G1 X68.559 Y90.711 E8.50759
G1 X68.838 Y89.327 E8.54605
G1 X69.235 Y88.146 E8.57999
G1 X69.859 Y86.827 E8.61974
G1 X71.114 Y85.251 E8.67462
G0 F6000 X71.502 Y85.64
G1 F900 X72.812 Y84.588 E8.72038
G1 X73.908 Y83.975 E8.75459
G1 X75.545 Y83.398 E8.80187
G1 X77.344 Y83.225 E8.8511
G1 X158.311 Y83.229 E11.05665
G1 X159.483 Y83.436 E11.08907
G1 X161.049 Y83.96 E11.13405
G1 X162.146 Y84.563 E11.16815
G1 X163.462 Y85.606 E11.21389
G1 X164.647 Y87.075 E11.2653
G1 X165.464 Y88.778 E11.31676
G1 X165.901 Y90.675 E11.36978
G1 X165.895 Y143.486 E12.80836
G1 X165.636 Y144.793 E12.84465
G1 X165.346 Y145.685 E12.8702
G1 X164.683 Y147.121 E12.91329
G1 X163.508 Y148.594 E12.96461
G1 X162.194 Y149.655 E13.01062
G1 X161.062 Y150.284 E13.0459
G1 X159.445 Y150.854 E13.0926
G1 X157.64 Y151.023 E13.14198
G1 X76.634 Y151.019 E15.34859
G1 X75.14 Y150.701 E15.3902
G1 X73.829 Y150.253 E15.42794
G1 X72.209 Y149.243 E15.47994
G1 X70.898 Y147.934 E15.53041
G1 X69.893 Y146.341 E15.58171
G1 X69.32 Y144.684 E15.62947
G1 X69.104 Y143.438 E15.66392
G1 X69.105 Y90.767 E17.09868
G1 X69.356 Y89.501 E17.13384
G1 X69.753 Y88.32 E17.16778
G1 X70.326 Y87.116 E17.2041
G1 X71.502 Y85.64 E17.25551
G0 F6000 X71.89 Y86.029
G1 F900 X73.117 Y85.044 E17.29837
G1 X74.138 Y84.473 E17.33023
G1 X75.665 Y83.935 E17.37434
G1 X77.344 Y83.771 E17.42029
G1 X158.261 Y83.775 E19.62447
G1 X159.388 Y83.974 E19.65565
G1 X160.826 Y84.461 E19.697
G1 X161.845 Y85.021 E19.72868
G1 X163.075 Y85.996 E19.77143
G1 X164.183 Y87.37 E19.81951
G1 X164.945 Y88.958 E19.86749
G1 X165.355 Y90.737 E19.91722
G1 X165.349 Y143.43 E21.35258
G1 X165.1 Y144.687 E21.38749
G1 X164.85 Y145.456 E21.40952
G1 X164.214 Y146.834 E21.45086
G1 X163.12 Y148.206 E21.49866
G1 X161.885 Y149.202 E21.54188
G1 X160.84 Y149.783 E21.57445
G1 X159.328 Y150.316 E21.61812
G1 X157.64 Y150.477 E21.66431
G1 X76.69 Y150.473 E23.86939
G1 X75.316 Y150.184 E23.90764
G1 X74.063 Y149.756 E23.9437
G1 X72.551 Y148.813 E23.99224
G1 X71.327 Y147.591 E24.03936
G1 X70.389 Y146.104 E24.08725
G1 X69.85 Y144.546 E24.13216
G1 X69.65 Y143.391 E24.16409
G1 X69.651 Y90.823 E25.59604
G1 X69.892 Y89.607 E25.62981
G1 X70.246 Y88.555 E25.66005
G1 X70.793 Y87.406 E25.69471
G1 X71.89 Y86.029 E25.74267
G0 F6000 X72.278 Y86.418
G1 F900 X73.424 Y85.498 E25.7827
G1 X74.365 Y84.972 E25.81207
G1 X75.785 Y84.472 E25.85308
G1 X77.344 Y84.317 E25.89575
G1 X158.211 Y84.321 E28.09857
G1 X159.293 Y84.512 E28.1285
G1 X160.605 Y84.962 E28.16629
G1 X161.54 Y85.476 E28.19535
G1 X162.688 Y86.386 E28.23525
G1 X163.719 Y87.665 E28.28
G1 X164.426 Y89.138 E28.32451
G1 X164.809 Y90.799 E28.37094
G1 X164.803 Y143.374 E29.80309
G1 X164.564 Y144.581 E29.83661
G1 X164.354 Y145.227 E29.85511
G1 X163.745 Y146.547 E29.89471
G1 X162.732 Y147.818 E29.93898
G1 X161.577 Y148.749 E29.97939
G1 X160.616 Y149.283 E30.00934
G1 X159.208 Y149.779 E30.05001
G1 X157.64 Y149.931 E30.09292
G1 X76.749 Y149.927 E32.29639
G1 X75.493 Y149.667 E32.33133
G1 X74.296 Y149.258 E32.36579
G1 X72.893 Y148.383 E32.41083
G1 X71.756 Y147.248 E32.45459
G1 X70.885 Y145.867 E32.49907
G1 X70.38 Y144.408 E32.54113
G1 X70.196 Y143.344 E32.57054
G1 X70.197 Y90.879 E33.99969
G1 X70.428 Y89.713 E34.03207
G1 X70.739 Y88.79 E34.0586
G1 X71.26 Y87.696 E34.09161
G1 X72.278 Y86.418 E34.13611
G0 F6000 X72.666 Y86.807
G1 F900 X73.731 Y85.952 E34.17332
G1 X74.59 Y85.472 E34.20012
G1 X75.906 Y85.008 E34.23813
G1 X77.344 Y84.863 E34.2775
G1 X158.164 Y84.867 E36.47904
G1 X159.116 Y85.029 E36.50535
G1 X160.388 Y85.465 E36.54198
G1 X161.235 Y85.931 E36.56831
G1 X162.303 Y86.777 E36.60542
G1 X163.254 Y87.958 E36.64673
G1 X163.907 Y89.318 E36.68782
G1 X164.263 Y90.861 E36.73096
G1 X164.257 Y143.32 E38.15995
G1 X164.044 Y144.415 E38.19033
G1 X163.858 Y144.998 E38.207
G1 X163.277 Y146.258 E38.2448
G1 X162.341 Y147.431 E38.28568
G1 X161.268 Y148.296 E38.32322
G1 X160.394 Y148.782 E38.35046
G1 X159.087 Y149.243 E38.38821
G1 X157.64 Y149.385 E38.42782
G1 X76.805 Y149.381 E40.62977
G1 X75.669 Y149.15 E40.66135
G1 X74.53 Y148.761 E40.69413
G1 X73.235 Y147.953 E40.73571
G1 X72.185 Y146.905 E40.77612
G1 X71.38 Y145.628 E40.81724
G1 X70.911 Y144.272 E40.85633
G1 X70.742 Y143.297 E40.88328
G1 X70.743 Y90.933 E42.30968
G1 X70.946 Y89.885 E42.33876
G1 X71.232 Y89.025 E42.36345
G1 X71.727 Y87.986 E42.3948
G1 X72.666 Y86.807 E42.43585
G0 F6000 X73.054 Y87.196
G1 F900 X74.038 Y86.406 E42.47023
G1 X74.817 Y85.971 E42.49453
G1 X76.026 Y85.545 E42.52945
G1 X77.344 Y85.409 E42.56554
G1 X158.119 Y85.413 E44.76586
G1 X158.983 Y85.56 E44.78973
G1 X160.166 Y85.966 E44.8238
G1 X160.93 Y86.386 E44.84755
G1 X161.915 Y87.167 E44.88179
G1 X162.79 Y88.253 E44.91978
G1 X163.388 Y89.498 E44.95741
G1 X163.717 Y90.923 E44.99724
G1 X163.711 Y143.268 E46.42312
G1 X163.522 Y144.253 E46.45044
G1 X163.362 Y144.769 E46.46516
G1 X162.808 Y145.971 E46.50121
G1 X161.953 Y147.043 E46.53857
G1 X160.96 Y147.843 E46.5733
G1 X160.17 Y148.282 E46.59792
G1 X158.967 Y148.706 E46.63267
G1 X157.64 Y148.839 E46.66899
G1 X76.862 Y148.835 E48.86939
G1 X75.846 Y148.633 E48.89761
G1 X74.763 Y148.263 E48.92878
G1 X73.577 Y147.523 E48.96686
G1 X72.614 Y146.562 E49.00392
G1 X71.876 Y145.391 E49.04163
G1 X71.441 Y144.134 E49.07786
G1 X71.288 Y143.25 E49.1023
G1 X71.289 Y90.983 E50.52605
G1 X71.465 Y90.055 E50.55178
G1 X71.725 Y89.26 E50.57457
G1 X72.194 Y88.276 E50.60426
G1 X73.054 Y87.196 E50.64187
G0 F6000 X73.442 Y87.585
G1 F900 X74.345 Y86.86 E50.67341
G1 X75.042 Y86.471 E50.69516
G1 X76.147 Y86.081 E50.72708
G1 X77.344 Y85.955 E50.75986
G1 X158.074 Y85.959 E52.95895
G1 X158.85 Y86.091 E52.98039
G1 X159.939 Y86.465 E53.01176
G1 X160.629 Y86.844 E53.0332
G1 X161.53 Y87.558 E53.06452
G1 X162.325 Y88.546 E53.09906
G1 X162.869 Y89.678 E53.13327
G1 X163.171 Y90.985 E53.16982
G1 X163.165 Y143.214 E54.59254
G1 X163 Y144.091 E54.61684
G1 X162.84 Y144.607 E54.63156
G1 X162.341 Y145.68 E54.6638
G1 X161.562 Y146.656 E54.69781
G1 X160.652 Y147.39 E54.72966
G1 X159.948 Y147.781 E54.7516
G1 X158.846 Y148.17 E54.78343
G1 X157.64 Y148.293 E54.81645
G1 X76.916 Y148.289 E57.01538
G1 X76.023 Y148.116 E57.04015
G1 X74.996 Y147.765 E57.06972
G1 X73.922 Y147.095 E57.1042
G1 X73.042 Y146.217 E57.13806
G1 X72.371 Y145.152 E57.17235
G1 X71.972 Y143.998 E57.20561
G1 X71.834 Y143.203 E57.22759
G1 X71.835 Y91.035 E58.64865
G1 X71.985 Y90.222 E58.67117
G1 X72.218 Y89.495 E58.69197
G1 X72.661 Y88.566 E58.72
G1 X73.442 Y87.585 E58.75416
G0 F6000 X73.83 Y87.974
G1 F900 X74.652 Y87.314 E58.78288
G1 X75.267 Y86.971 E58.80206
G1 X76.268 Y86.617 E58.83098
G1 X77.344 Y86.501 E58.86046
G1 X158.029 Y86.505 E61.05832
G1 X158.716 Y86.622 E61.07731
G1 X159.712 Y86.964 E61.10599
G1 X160.328 Y87.302 E61.12513
G1 X161.145 Y87.949 E61.15352
G1 X161.86 Y88.838 E61.1846
G1 X162.35 Y89.858 E61.21542
G1 X162.625 Y91.047 E61.24867
G1 X162.619 Y143.163 E62.66831
G1 X162.478 Y143.929 E62.68952
G1 X162.318 Y144.445 E62.70424
G1 X161.874 Y145.39 E62.73268
G1 X161.174 Y146.268 E62.76327
G1 X160.344 Y146.937 E62.79231
G1 X159.726 Y147.28 E62.81156
G1 X158.725 Y147.634 E62.84048
G1 X157.64 Y147.747 E62.8702
G1 X76.97 Y147.743 E65.06765
G1 X76.199 Y147.599 E65.08902
G1 X75.23 Y147.268 E65.11691
G1 X74.267 Y146.667 E65.14783
G1 X73.47 Y145.872 E65.1785
G1 X72.867 Y144.915 E65.20931
G1 X72.502 Y143.86 E65.23972
G1 X72.38 Y143.156 E65.25918
G1 X72.381 Y91.085 E66.6776
G1 X72.522 Y90.321 E66.69876
G1 X72.711 Y89.73 E66.71567
G1 X73.128 Y88.856 E66.74204
G1 X73.83 Y87.974 E66.77275
G1 F2400 E63.77275
G0 F6000 X74.606 Y88.752
G1 F2400 E66.77275
G1 F900 X75.266 Y88.222 E66.79581
G1 X75.717 Y87.971 E66.80987
G1 X76.516 Y87.688 E66.83296
G1 X77.344 Y87.593 E66.85566
G1 X157.939 Y87.597 E69.05107
G1 X158.448 Y87.684 E69.06514
G1 X159.264 Y87.964 E69.08864
G1 X159.722 Y88.215 E69.10287
G1 X160.372 Y88.73 E69.12546
G1 X160.929 Y89.422 E69.14965
G1 X161.314 Y90.222 E69.17384
G1 X161.533 Y91.171 E69.20037
G1 X161.527 Y143.062 E70.61388
G1 X161.432 Y143.612 E70.62909
G1 X161.303 Y144.048 E70.64147
G1 X160.939 Y144.811 E70.6645
G1 X160.394 Y145.496 E70.68834
G1 X159.734 Y146.027 E70.71142
G1 X159.282 Y146.278 E70.7255
G1 X158.482 Y146.561 E70.74862
G1 X157.64 Y146.655 E70.7717
G1 X77.064 Y146.651 E72.96659
G1 X76.553 Y146.565 E72.98071
G1 X75.696 Y146.272 E73.00538
G1 X74.954 Y145.809 E73.0292
G1 X74.327 Y145.184 E73.05332
G1 X73.859 Y144.441 E73.07724
G1 X73.562 Y143.584 E73.10194
G1 X73.472 Y143.062 E73.11637
G1 X73.473 Y91.186 E74.52948
G1 X73.568 Y90.637 E74.54465
G1 X73.697 Y90.2 E74.55707
G1 X74.062 Y89.436 E74.58013
G1 X74.606 Y88.752 E74.60394
G0 F6000 X74.218 Y88.363
G1 F900 X74.959 Y87.768 E74.62982
G1 X75.492 Y87.471 E74.64644
G1 X76.39 Y87.153 E74.67239
G1 X77.344 Y87.047 E74.69854
G1 X157.984 Y87.051 E76.89518
G1 X158.582 Y87.153 E76.9117
G1 X159.488 Y87.464 E76.9378
G1 X160.025 Y87.758 E76.95447
G1 X160.757 Y88.339 E76.97993
G1 X161.395 Y89.131 E77.00763
G1 X161.832 Y90.04 E77.03511
G1 X162.079 Y91.109 E77.065
G1 X162.073 Y143.11 E78.48151
G1 X161.956 Y143.767 E78.49968
G1 X161.796 Y144.283 E78.5144
G1 X161.406 Y145.101 E78.53909
G1 X160.784 Y145.882 E78.56628
G1 X160.039 Y146.482 E78.59234
G1 X159.504 Y146.779 E78.60901
G1 X158.603 Y147.098 E78.63504
G1 X157.64 Y147.201 E78.66143
G1 X77.018 Y147.197 E80.85757
G1 X76.376 Y147.082 E80.87534
G1 X75.463 Y146.77 E80.90162
G1 X74.612 Y146.239 E80.92895
G1 X73.898 Y145.527 E80.95641
G1 X73.363 Y144.678 E80.98375
G1 X73.032 Y143.722 E81.01131
G1 X72.926 Y143.109 E81.02825
G1 X72.927 Y91.138 E82.44394
G1 X73.044 Y90.482 E82.4621
G1 X73.204 Y89.965 E82.47684
G1 X73.595 Y89.146 E82.50156
G1 X74.218 Y88.363 E82.52882
G1 F2400 E79.52882
;MESH:top_full.stl
G0 F6000 X76.702 Y88.474
G0 X104.45 Y88.246
;TYPE:WALL-OUTER
G1 F2400 E82.52882
G1 F851.6 X104.724 Y88.261 E82.53672
G0 F6000 X105.228 Y88.419
G0 X109.783 Y88.42
G0 X110.45 Y88.246
G1 F851.6 X110.724 Y88.261 E82.54462
G1 F2400 E79.54462
G0 F6000 X111.228 Y88.419
G0 X158.09 Y89.197
G0 X159.267 Y89.834
G0 X159.84 Y90.743
G0 X159.98 Y142.906
G0 X159.612 Y143.983
G0 X158.811 Y144.774
G0 X157.533 Y145.107
G0 X153.813 Y145.048
G0 X153.272 Y138.525
G0 X150.168 Y137.016
G0 X122.388 Y136.934
G0 X125.027 Y133.751
G0 X128.18 Y131.481
G0 X130.491 Y127.816
G0 X129.775 Y126.316
G0 X131.643 Y123.101
G0 X115.682 Y108.165
G0 X114.152 Y110.622
G0 X114.242 Y110.615
;TYPE:WALL-INNER
G1 F2400 E82.54462
G1 F900 X114.229 Y110.1 E82.55865
G1 X114.325 Y109.677 E82.57046
G1 X114.609 Y109.18 E82.58606
G1 X115.093 Y108.74 E82.60387
G1 X115.738 Y108.519 E82.62245
G1 X116.36 Y108.523 E82.63939
G1 X116.948 Y108.735 E82.65642
G1 X117.262 Y108.973 E82.66715
G1 X121.007 Y112.713 E82.81132
G1 F941.4 X121.419 Y113.191 E82.82776
G1 F1004.9 X124.093 Y115.863 E82.91998
G1 F1043.3 X126.767 Y118.535 E83.00881
G1 F975 X127.205 Y118.91 E83.02331
G1 F900 X131.03 Y122.736 E83.17068
G1 X131.3 Y123.211 E83.18556
G1 X131.424 Y123.756 E83.20079
G1 X131.371 Y124.362 E83.21736
G1 X131.104 Y124.928 E83.2344
G1 X130.956 Y125.116 E83.24092
G1 X130.486 Y125.504 E83.25752
G1 X130.011 Y125.669 E83.27122
G1 X129.358 Y125.685 E83.28901
G1 X129.023 Y125.603 E83.29841
G1 F961.6 X128.552 Y125.34 E83.31216
G1 F1043.3 X121.629 Y118.414 E83.54227
G1 F1063.6 X114.705 Y111.488 E83.76801
G1 F998.8 X114.4 Y111.086 E83.78039
G1 F916.8 X114.242 Y110.615 E83.79368
G0 F6000 X114.152 Y110.622
G0 X112.156 Y109.77
G0 X110.783 Y109.893
G0 X110.007 Y110.641
G0 X109.726 Y111.737
G0 X109.818 Y111.741
G1 F900 X109.845 Y111.115 E83.81074
G1 X110.053 Y110.633 E83.82504
G1 X110.297 Y110.307 E83.83614
G1 X110.76 Y109.946 E83.85213
G1 X111.383 Y109.735 E83.87005
G1 X112.132 Y109.801 E83.89053
G1 X112.745 Y110.108 E83.9092
G1 X113.794 Y111.157 E83.94961
G1 F941.4 X114.3 Y111.73 E83.96952
G1 F994.7 X117.783 Y115.212 E84.0909
G1 F1013.2 X121.266 Y118.694 E84.21007
G1 F1030.2 X124.749 Y122.176 E84.32728
G1 F1050 X128.232 Y125.658 E84.44227
G1 F973.1 X128.698 Y126.06 E84.45777
G1 F900 X129.69 Y127.056 E84.49606
G1 X129.965 Y127.435 E84.50882
G1 X130.109 Y127.776 E84.5189
G1 X130.186 Y128.307 E84.53352
G1 X130.11 Y128.852 E84.54851
G1 X129.874 Y129.325 E84.56291
G1 X129.42 Y129.789 E84.58059
G1 X128.998 Y130.011 E84.59358
G1 X128.323 Y130.121 E84.61221
G1 X127.702 Y130.003 E84.62943
G1 F978.9 X127.23 Y129.675 E84.64382
G1 F1075.3 X110.304 Y112.746 E85.18963
G1 F998.8 X110.002 Y112.354 E85.20178
G1 F915.1 X109.863 Y112.008 E85.21177
G1 F900 X109.818 Y111.741 E85.21914
G0 F6000 X109.726 Y111.737
G0 X108.129 Y112.066
G0 X106.88 Y112.748
G0 X106.438 Y113.667
G0 X106.524 Y113.687
G1 F900 X106.646 Y113.227 E85.23211
G1 X106.915 Y112.757 E85.24686
G1 X107.481 Y112.294 E85.26678
G1 X108.139 Y112.1 E85.28546
G1 X108.742 Y112.152 E85.30195
G1 X108.961 Y112.222 E85.30821
G1 X109.379 Y112.443 E85.32109
G1 F908.3 X109.557 Y112.582 E85.32719
G1 F980.8 X109.857 Y112.943 E85.33892
G1 F1059.1 X126.974 Y130.055 E85.89921
G1 F1017.4 X127.462 Y130.47 E85.91465
G1 F936 X127.711 Y130.981 E85.92954
G1 F900 X127.819 Y131.462 E85.94296
G1 X127.788 Y131.953 E85.95637
G1 X127.706 Y132.23 E85.96423
G1 X127.498 Y132.63 E85.97652
G1 X127.21 Y132.956 E85.98837
G1 X126.662 Y133.284 E86.00576
G1 X126.424 Y133.365 E86.01261
G1 X125.968 Y133.417 E86.02511
G1 X125.37 Y133.297 E86.04173
G1 F901.7 X124.791 Y132.95 E86.06008
G1 F976.9 X124.465 Y132.562 E86.0728
G1 F1059.1 X107.365 Y115.466 E86.63255
G1 F978.9 X106.99 Y115.15 E86.64483
G1 F908.3 X106.843 Y114.962 E86.65127
G1 F900 X106.62 Y114.541 E86.66425
G1 X106.555 Y114.323 E86.67044
G1 X106.524 Y113.687 E86.68779
G0 F6000 X106.438 Y113.667
G0 X105.872 Y114.669
G0 X104.402 Y116.203
G0 X104.058 Y117.339
G0 X104.148 Y117.325
G1 F900 X104.216 Y116.707 E86.70473
G1 X104.453 Y116.19 E86.72022
G1 X104.847 Y115.776 E86.73579
G1 X105.39 Y115.49 E86.7525
G1 X105.608 Y115.436 E86.75862
G1 X106.145 Y115.409 E86.77327
G1 X106.415 Y115.457 E86.78074
G1 F916.8 X106.763 Y115.598 E86.79078
G1 F1002.9 X107.219 Y115.96 E86.80501
G1 F1082.4 X124.032 Y132.773 E87.34357
G1 F982.8 X124.378 Y133.231 E87.35789
G1 F901.7 X124.514 Y133.78 E87.37327
G1 F900 X124.479 Y134.392 E87.38996
G1 X124.339 Y134.767 E87.40087
G1 X123.963 Y135.271 E87.418
G1 X123.724 Y135.462 E87.42633
G1 F901.7 X123.138 Y135.728 E87.44383
G1 X122.706 Y135.78 E87.45566
G1 F900 X122.29 Y135.726 E87.46709
G1 X122.004 Y135.624 E87.47536
G1 X121.485 Y135.307 E87.49192
G1 F906.6 X120.223 Y134.052 E87.54005
G1 F992.7 X119.946 Y133.706 E87.551
G1 F1080 X106.175 Y119.938 E87.99303
G1 F978.9 X105.52 Y119.345 E88.01516
